!!!!SEGMENT: pl-wtm--r-1688_stefani-jozef--polonez-wieku-dziewietnastego.krn
!!!cenid: 18xx:2070
!!!COM: Stefani, Józef
!!!COM-rismid: pe30024097
!!!CDT: 1800/04/16-1876/03/19
!!!CNT: Polish
!!!OTL: Polonez wieku dziewiętnastego
!!!PDT:
!!!AGN: Secular
!!!SMS-siglum: PL-Wtm
!!!SMS-shelfmark: R 1688
!!!SMS-shelfwork: W
!!!SMS-variant:
!!!SMS-altvar:
!!!NIFC-rismid: 1001114707
!!!URL-scan: http://repozytorium.nifc.pl/skany/pl-wtm-nut--r1688
!!!ONB-nifc: UWAGA: obsada za RISM: vl (2), vla, vlc, cb, fl.picc, fl, cl (2), fag, cor (2), tr (2), timp, banda
**kern	**dynam	**kern	**dynam	**kern	**dynam	**kern	**dynam	**kern	**dynam	**kern	**dynam	**kern	**dynam	**kern	**dynam	**kern	**dynam	**kern	**dynam	**kern	**dynam	**kern	**dynam
*part12	*part12	*part11	*part11	*part10	*part10	*part9	*part9	*part8	*part8	*part7	*part7	*part6	*part6	*part5	*part5	*part4	*part4	*part3	*part3	*part2	*part2	*part1	*part1
*staff12	*	*staff11	*	*staff10	*	*staff9	*	*staff8	*	*staff7	*	*staff6	*	*staff5	*	*staff4	*	*staff3	*	*staff2	*	*staff1	*
*I"[Violoncello]	*	*I"[Viola]	*	*I"[Violino II]	*	*I"[Violino I]	*	*I"Banda	*	*I"Timpani	*	*I"Trombe in C.	*	*I"[Fagotto]	*	*I"Corni in D.	*	*I"Clarinetti in a.	*	*I"[Flauto piccolo]	*	*I"[Flauto]	*
*I'vlc	*	*I'vla	*	*I'vl II	*	*I'vl I	*	*I'banda	*	*I'timp	*	*I'tr in C	*	*I'fag	*	*I'cor in D	*	*I'cl in A	*	*I'fl.picc	*	*I'fl	*
*clefF4	*	*clefC3	*	*clefG2	*	*clefG2	*	*clefF4	*	*clefF4	*	*clefG2	*	*clefF4	*	*clefG2	*	*clefG2	*	*clefG2	*	*clefG2	*
*	*	*	*	*	*	*	*	*	*	*	*	*	*	*	*	*ITrd6c10	*	*ITrd2c3	*	*ITrd0c0	*	*	*
*k[f#c#]	*	*k[f#c#]	*	*k[f#c#]	*	*k[f#c#]	*	*k[f#c#]	*	*k[f#c#]	*	*k[f#c#]	*	*k[f#c#]	*	*k[f#c#]	*	*k[f#c#]	*	*k[f#c#]	*	*k[f#c#]	*
*M3/4	*	*M3/4	*	*M3/4	*	*M3/4	*	*M3/4	*	*M3/4	*	*M3/4	*	*M3/4	*	*M3/4	*	*M3/4	*	*M3/4	*	*M3/4	*
*>[A,A,B,C,C,D	*	*	*	*	*	*	*	*	*	*	*	*	*	*	*	*	*	*	*	*	*	*	*
=1	=1	=1	=1	=1	=1	=1	=1	=1	=1	=1	=1	=1	=1	=1	=1	=1	=1	=1	=1	=1	=1	=1	=1
*>A	*	*	*	*	*	*	*	*	*	*	*	*	*	*	*	*	*	*	*	*	*	*	*
(32qqAA/LLL	f	(32qqA/LLL	f	(32qqA/LLLyy	fyy	(32qqA/LLL	f	.	.	.	.	.	.	(32qqAA/LLL	.	.	.	(<(<32qqa/LLL 32qqA/	.	32qqa/LLL	.	(32qqaa/LLL	.
32qqBB/	.	32qqB/	.	32qqB/yy	.	32qqB/	.	.	.	16qqG/LL	.	.	.	32qqBB/	.	.	.	32qqb/ 32qqB/	.	32qqb/	.	32qqbb/	.
!LO:TX:t=P:problem:obsada za RISM vlc i cb, natomiast w źródle nie ma pięciolinii dla cb	!	!	!	!LO:TX:a:t=unis	!	!	!	!	!	!	!	!	!	!	!	!	!	!	!	!	!	!LO:TX:t=P:problem:wiekszość dolnych caud z prawej strony	!
32qqC#/JJJ	.	32qqc#/JJJ	.	32qqc#/JJJyy	.	32qqc#/JJJ	.	.	.	16qqG/JJ	.	.	.	32qqC#/JJJ)	.	.	.	32qqcc#/JJJ 32qqc#/	.	32qqcc#/JJJ	.	32qqccc#/JJJ	.
*	*	*	*	*	*	*	*	*	*	*^	*	*	*	*	*	*	*	*	*	*	*	*	*
8D\L)	.	8d\L)	.	8d/L)yy	.	8d/L)	.	2.r	.	4G/	4C#\	.	2.r	.	8D\L	.	2.r	.	8dd/L 8d/))	.	4dd\	.	4ddd\)	.
8F#'\J	.	8f#'\J	.	8f#'/Jyy	.	8f#'/J	.	.	.	.	.	.	.	.	8F#'\J	.	.	.	8f#/J	.	.	.	.	.
(4.B\	.	(4.b\	.	(4.b/yy	.	(4.b/	.	.	.	4r	2ryy	.	.	.	(4.B\	.	.	.	(4.b\	.	4r	.	4r	.
.	.	.	.	.	.	.	.	.	.	4r	.	.	.	.	.	.	.	.	.	.	4r	.	4r	.
8A\)	.	8a\)	.	8a/)yy	.	8a/)	.	.	.	.	.	.	.	.	8A\)	.	.	.	8a\)	.	.	.	.	.
*	*	*	*	*	*	*	*	*	*	*v	*v	*	*	*	*	*	*	*	*	*	*	*	*	*
=2	=2	=2	=2	=2	=2	=2	=2	=2	=2	=2	=2	=2	=2	=2	=2	=2	=2	=2	=2	=2	=2	=2	=2
8G'\L	.	(16g\LL	.	(16g/LLyy	.	(16g/LL	.	2.r	.	2.r	.	2.r	.	8G'\L	.	2.r	.	(16g/LL	.	2.r	.	2.r	.
.	.	16a\)	.	16a/)yy	.	16a/)	.	.	.	.	.	.	.	.	.	.	.	16a/)	.	.	.	.	.
8F#'\	.	(16f#\	.	(16f#/yy	.	(16f#/	.	.	.	.	.	.	.	8F#'\	.	.	.	(16f#/	.	.	.	.	.
.	.	16g\JJ)	.	16g/JJ)yy	.	16g/JJ)	.	.	.	.	.	.	.	.	.	.	.	16g/JJ)	.	.	.	.	.
8E'\	.	(16e\LL	.	(16e/LLyy	.	(16e/LL	.	.	.	.	.	.	.	8E'\	.	.	.	(16e/LL	.	.	.	.	.
.	.	16f#\)	.	16f#/)yy	.	16f#/)	.	.	.	.	.	.	.	.	.	.	.	16f#/)	.	.	.	.	.
8D'\	.	(16d\	.	(16d/yy	.	(16d/	.	.	.	.	.	.	.	8D'\	.	.	.	(16d/	.	.	.	.	.
.	.	16e\JJ)	.	16e/JJ)yy	.	16e/JJ)	.	.	.	.	.	.	.	.	.	.	.	16e/JJ)	.	.	.	.	.
8C#'\	.	(16c#\LL	.	(16c#/LLyy	.	(16c#/LL	.	.	.	.	.	.	.	8C#'\	.	.	.	(16c#/LL	.	.	.	.	.
.	.	16d\)	.	16d/)yy	.	16d/)	.	.	.	.	.	.	.	.	.	.	.	16d/)	.	.	.	.	.
8BB'\J	.	(16B\	.	(16B/yy	.	(16B/	.	.	.	.	.	.	.	8BB'\J	.	.	.	(16B/	.	.	.	.	.
.	.	16c#\JJ)	.	16c#/JJ)yy	.	16c#/JJ)	.	.	.	.	.	.	.	.	.	.	.	16c#/JJ)	.	.	.	.	.
=3	=3	=3	=3	=3	=3	=3	=3	=3	=3	=3	=3	=3	=3	=3	=3	=3	=3	=3	=3	=3	=3	=3	=3
4AA/	.	4A/	.	4A'/yy	.	4A'/	.	8r	.	2.r	.	8r	.	4AA/	.	8r	.	4A/	.	2.r	.	2.r	.
.	.	.	.	.	.	.	.	.	.	.	.	.	f	.	.	.	.	.	.	.	.	.	.
.	.	.	.	.	.	.	.	16A\LL	f	.	.	16a/LL	.	.	.	16A/LL	f	.	.	.	.	.	.
.	.	.	.	.	.	.	.	16A\JJ	.	.	.	16a/JJ	.	.	.	16A/JJ	.	.	.	.	.	.	.
*	*	*	*	*	*	*	*	*tremolo	*	*	*	*tremolo	*	*	*	*	*	*	*	*	*	*	*
*	*	*	*	*	*	*	*	*2\right	*	*	*	*	*	*	*	*	*	*	*	*	*	*	*
4r	.	4r	.	4ryy	.	4r	.	8A\L	.	.	.	8a/L	.	4r	.	8A/L	.	4r	.	.	.	.	.
.	.	.	.	.	.	.	.	8A\	.	.	.	8a/	.	.	.	8A/	.	.	.	.	.	.	.
4r	.	4r	.	4ryy	.	4r	.	8A\	.	.	.	8a/	.	4r	.	8A/	.	4r	.	.	.	.	.
.	.	.	.	.	.	.	.	8A\J	.	.	.	8a/J	.	.	.	8A/J	.	.	.	.	.	.	.
*	*	*	*	*	*	*	*	*	*	*	*	*Xtremolo	*	*	*	*	*	*	*	*	*	*	*
!!LO:PB:g=original
=4	=4	=4	=4	=4	=4	=4	=4	=4	=4	=4	=4	=4	=4	=4	=4	=4	=4	=4	=4	=4	=4	=4	=4
*	*	*	*	*	*	*	*	*	*	*^	*	*^	*	*	*	*	*	*	*	*	*	*	*
*	*	*2\right	*	*	*	*	*	*	*	*	*	*	*	*	*	*	*	*	*	*	*	*	*	*	*
*tremolo	*	*tremolo	*	*tremolo	*	*	*	*	*	*	*	*	*	*	*	*	*	*	*	*	*	*	*	*	*
!	!	!	!	!	!	!	!	!	!	!	!	!	!	!	!	!	!	!	!	!	!	!LO:TX:a:t=Col V°. I°.	!	!LO:TX:a:t=Col V°. I°. 8va	!
8BB-X/L	.	16d\LL	.	16d/LL 16B-X/	.	(16dd\LL	.	2.BB-X/	.	2.GTT/	4C#\	.	8dd/L	8dd\L	.	2.B-X\	.	2.d/ 2.D/	.	2.dd/ 2.d/	.	16dd\LLyy	.	16ddd\LLyy	.
.	.	16d\	.	16d/ 16B-X/	.	16cc#\	.	.	.	.	.	.	.	.	.	.	.	.	.	.	.	16cc#\yy	.	16ccc#\yy	.
8BB-/	.	16d\	.	16d/ 16B-X/	.	16dd\	.	.	.	.	.	.	16dd/L	16dd\L	.	.	.	.	.	.	.	16dd\yy	.	16ddd\yy	.
.	.	16d\	.	16d/ 16B-X/	.	16ee\JJ	.	.	.	.	.	.	16dd/JJ	16dd\JJ	.	.	.	.	.	.	.	16ee\JJyy	.	16eee\JJyy	.
*	*	*	*	*	*	*	*	*	*	*	*	*	*tremolo	*tremolo	*	*	*	*	*	*	*	*	*	*	*
8BB-/	.	16d\	.	16d/ 16B-X/	.	16ffn\LL	.	.	.	.	4C#\	.	8dd/L	8dd\L	.	.	.	.	.	.	.	16ffn\LLyy	.	16fffn\LLyy	.
.	.	16d\	.	16d/ 16B-X/	.	16cc#\	.	.	.	.	.	.	.	.	.	.	.	.	.	.	.	16cc#\yy	.	16ccc#\yy	.
8BB-/	.	16d\	.	16d/ 16B-X/	.	16dd\	.	.	.	.	.	.	8dd/	8dd\	.	.	.	.	.	.	.	16dd\yy	.	16ddd\yy	.
.	.	16d\	.	16d/ 16B-X/	.	16ee\JJ	.	.	.	.	.	.	.	.	.	.	.	.	.	.	.	16ee\JJyy	.	16eee\JJyy	.
8BB-/	.	16d\	.	16d/ 16B-X/	.	16ffn\LL	.	.	.	.	4C#\	.	8dd/	8dd\	.	.	.	.	.	.	.	16ffn\LLyy	.	16fffn\LLyy	.
.	.	16d\	.	16d/ 16B-X/	.	16ff#X\	.	.	.	.	.	.	.	.	.	.	.	.	.	.	.	16ff#X\yy	.	16fff#X\yy	.
8BB-/J	.	16d\	.	16d/ 16B-X/	.	16gg\	.	.	.	.	.	.	8dd/J	8dd\J	.	.	.	.	.	.	.	16gg\yy	.	16ggg\yy	.
.	.	16d\JJ	.	16d/JJ 16B-X/	.	16gg#X\JJ	.	.	.	.	.	.	.	.	.	.	.	.	.	.	.	16gg#X\JJyy	.	16ggg#X\JJyy	.
*Xtremolo	*	*	*	*	*	*	*	*	*	*	*	*	*Xtremolo	*Xtremolo	*	*	*	*	*	*	*	*	*	*	*
=5	=5	=5	=5	=5	=5	=5	=5	=5	=5	=5	=5	=5	=5	=5	=5	=5	=5	=5	=5	=5	=5	=5	=5	=5	=5
*	*	*	*	*	*	*	*	*	*	*	*	*	*	*	*	*	*	*	*	*^	*	*	*	*	*
8AA/	.	8c#\	.	8e/ 8A/	.	8aa\L)	.	8AA/	.	8G/	8C#\	.	8a/	8a\	.	8A\	.	8A/ 8AA/	.	8cc#/ 8e/	4ryy	.	8aa\Lyy	.	8aaa\Lyy	.
(32E\LLL	.	(32e\LLL	.	(32ee\LLL	.	(32ee\LL	.	8r	.	8r	8ryy	.	8r	8ryy	.	8r	.	8r	.	8r	.	.	(32ee\LLyy	.	(32eee\LLyy	.
32D\	.	32d\	.	32dd\	.	32dd\	.	.	.	.	.	.	.	.	.	.	.	.	.	.	.	.	32dd\yy	.	32ddd\yy	.
32C#\	.	32c#\	.	32cc#\	.	32cc#\	.	.	.	.	.	.	.	.	.	.	.	.	.	.	.	.	32cc#\yy	.	32ccc#\yy	.
32BB\JJJ	.	32B\JJJ	.	32b\JJJ	.	32b\JJJ	.	.	.	.	.	.	.	.	.	.	.	.	.	.	.	.	32b\JJJyy	.	32bb\JJJyy	.
8AA/)	.	8A/)	.	8a/)	.	8a/)	.	4r	.	4r	2ryy	.	4r	2ryy	.	8.r	.	4r	.	8.r	8.ryy	.	8a/)yy	.	8aa\)yy	.
8r	.	8r	.	8r	.	8r	.	.	.	.	.	.	.	.	.	.	.	.	.	.	.	.	8ryy	.	8ryy	.
*	*	*	*	*	*	*	*	*	*	*	*	*	*	*	*	*clefC4	*	*	*	*	*	*	*	*	*	*
.	.	.	.	.	.	.	.	.	.	.	.	.	.	.	.	16g\|	.	.	.	16cc#/|	16a\	.	.	.	.	.
4r	.	4r	.	4r	.	4r	.	4r	.	4r	.	.	4r	.	.	(16fn\LL	.	4r	.	(16dd/LL	4a\	.	4ryy	.	4ryy	.
.	.	.	.	.	.	.	.	.	.	.	.	.	.	.	.	16e\	.	.	.	16cc#/	.	.	.	.	.	.
.	.	.	.	.	.	.	.	.	.	.	.	.	.	.	.	16f\	.	.	.	16dd/	.	.	.	.	.	.
.	.	.	.	.	.	.	.	.	.	.	.	.	.	.	.	16d\JJ	.	.	.	16ffX/JJ	.	.	.	.	.	.
*	*	*	*	*	*	*	*	*	*	*v	*v	*	*	*	*	*	*	*	*	*	*	*	*	*	*	*
*	*	*	*	*	*	*	*	*	*	*	*	*v	*v	*	*	*	*	*	*	*	*	*	*	*	*
=6	=6	=6	=6	=6	=6	=6	=6	=6	=6	=6	=6	=6	=6	=6	=6	=6	=6	=6	=6	=6	=6	=6	=6	=6
!LO:TX:t=P:problem:brak wpisanej pauzy w źródle	!	!LO:TX:t=P:problem:brak wpisanej pauzy w źródle	!	!LO:TX:t=P:problem:brak wpisanej pauzy w źródle	!	!	!	!	!	!	!	!	!	!	!	!	!	!	!	!	!	!	!	!
8ryy	.	8ryy	.	8ryy	.	8r	.	2.r	.	2.r	.	2.r	.	8c#\)	.	2.r	.	8ee/)	8a\	.	8ryy	.	8ryy	.
(32E\LLL	.	(32e\LLL	.	(32ee\LLL	.	(32ee\LLL	.	.	.	.	.	.	.	8r	.	.	.	8r	8ryy	.	(32ee\LLLyy	.	(32eee\LLLyy	.
32D\	.	32d\	.	32dd\	.	32dd\	.	.	.	.	.	.	.	.	.	.	.	.	.	.	32dd\yy	.	32ddd\yy	.
32C#\	.	32c#\	.	32cc#\	.	32cc#\	.	.	.	.	.	.	.	.	.	.	.	.	.	.	32cc#\yy	.	32ccc#\yy	.
32BB\JJJ	.	32B\JJJ	.	32b\JJ	.	32b\JJJ	.	.	.	.	.	.	.	.	.	.	.	.	.	.	32b\JJJyy	.	32bb\JJJyy	.
8AA\)	.	8A\)	.	8a\)J	.	8a\)	.	.	.	.	.	.	.	8.r	.	.	.	8.r	8.ryy	.	8a\)yy	.	8aa\)yy	.
8r	.	8r	.	8r	.	8r	.	.	.	.	.	.	.	.	.	.	.	.	.	.	8ryy	.	8ryy	.
.	.	.	.	.	.	.	.	.	.	.	.	.	.	16g\|	.	.	.	16cc#/	16a\	.	.	.	.	.
4r	.	4r	.	4r	.	4r	.	.	.	.	.	.	.	(16fn\LL	.	.	.	(16dd/LL	4a\	.	4ryy	.	4ryy	.
.	.	.	.	.	.	.	.	.	.	.	.	.	.	16e\	.	.	.	16cc#/	.	.	.	.	.	.
.	.	.	.	.	.	.	.	.	.	.	.	.	.	16f\	.	.	.	16dd/	.	.	.	.	.	.
.	.	.	.	.	.	.	.	.	.	.	.	.	.	16d\JJ	.	.	.	16ffX/JJ	.	.	.	.	.	.
*	*	*	*	*	*	*	*	*	*	*	*	*	*	*	*	*	*	*v	*v	*	*	*	*	*
!!LO:PB:g=original
=7	=7	=7	=7	=7	=7	=7	=7	=7	=7	=7	=7	=7	=7	=7	=7	=7	=7	=7	=7	=7	=7	=7	=7
.	.	.	.	.	.	.	.	.	.	16qqG/LL	.	.	.	.	.	.	.	.	.	.	.	.	.
!	!	!	!	!LO:TX:a:t=unis	!	!	!	!	!	!	!	!	!	!	!	!	!	!	!	!	!	!	!
.	.	.	.	.	.	.	.	.	.	16qqG/JJ	.	.	.	.	.	.	.	.	.	.	.	.	.
*	*	*	*	*	*	*	*	*	*	*^	*	*	*	*	*	*	*	*	*	*	*	*	*
8r	.	8r	.	8ryy	.	8r	.	4A\	.	8G/	8C#\	.	8a/ 8c#/	.	8c#\)	.	8e/ 8A/	.	8aa\ 8a\)	.	8ryy	.	8r	.
*	*	*	*	*	*	*	*	*	*	*	*	*	*	*	*clefF4	*	*	*	*	*	*	*	*	*
(32B\LLL	.	(32b\LLL	.	(32bb\LLLyy	.	(32bb\LLL	.	.	.	8r	8ryy	.	8r	.	(32B\LLL	.	8r	.	(32b\LLL>	.	(32b/LLLyy	.	(32bb\LLL	.
32A\	.	32a\	.	32aa\yy	.	32aa\	.	.	.	.	.	.	.	.	32A\	.	.	.	32a\	.	32a/yy	.	32aa\	.
32G\	.	32g\	.	32gg\yy	.	32gg\	.	.	.	.	.	.	.	.	32G\	.	.	.	32g\	.	32g/yy	.	32gg\	.
32F#\JJJ)	.	32f#\JJJ)	.	32ff#\JJJ)yy	.	32ff#\JJJ)	.	.	.	.	.	.	.	.	32F#\JJJ	.	.	.	32f#\JJJ	.	32f#/JJJyy	.	32ff#\JJJ	.
8E\L	.	8e\L	.	8ee\Lyy	.	8ee\L	.	2r	.	2r	2ryy	.	4r	.	8E\L)	.	4r	.	8e/L)	.	8e\L)yy	.	8ee\L)	.
(32G\LL	.	(32g\LL	.	(32gg\LLyy	.	(32gg\LL	.	.	.	.	.	.	.	.	(32G\LL	.	.	.	(32g/LL	.	(32gg\LLyy	.	(32ggg\LL	.
32F#\	.	32f#\	.	32ff#\yy	.	32ff#\	.	.	.	.	.	.	.	.	32F#\	.	.	.	32f#/	.	32ff#\yy	.	32fff#\	.
32E\	.	32e\	.	32ee\yy	.	32ee\	.	.	.	.	.	.	.	.	32E\	.	.	.	32e/	.	32ee\yy	.	32eee\	.
32D\JJJ)	.	32d\JJJ)	.	32dd\JJJ)yy	.	32dd\JJJ)	.	.	.	.	.	.	.	.	32D\JJJ	.	.	.	32d/JJJ	.	32dd\JJJyy	.	32ddd\JJJ	.
8C#/L	.	8c#\L	.	8cc#\Lyy	.	8cc#\L	.	.	.	.	.	.	4r	.	8C#/L)	.	4r	.	8c#/L)	.	8cc#\L)yy	.	8ccc#\L)	.
(32E/LL	.	(32e\LL	.	(32ee\LLyy	.	(32ee\LL	.	.	.	.	.	.	.	.	(32E/LL	.	.	.	(32e/LL	.	(32ee\LLyy	.	(32eee\LL	.
32D/	.	32d\	.	32dd\yy	.	32dd\	.	.	.	.	.	.	.	.	32D/	.	.	.	32d/	.	32dd\yy	.	32ddd\	.
32C#/	.	32c#\	.	32cc#\yy	.	32cc#\	.	.	.	.	.	.	.	.	32C#/	.	.	.	32c#/	.	32cc#\yy	.	32ccc#\	.
32BB/JJJ	.	32B\JJJ	.	32b\JJJyy	.	32b\JJJ	.	.	.	.	.	.	.	.	32BB/JJJ	.	.	.	32B/JJJ	.	32b\JJJyy	.	32bb\JJJ	.
*	*	*	*	*	*	*	*	*	*	*v	*v	*	*	*	*	*	*	*	*	*	*	*	*	*
=8	=8	=8	=8	=8	=8	=8	=8	=8	=8	=8	=8	=8	=8	=8	=8	=8	=8	=8	=8	=8	=8	=8	=8
*	*	*	*	*	*	*	*	*	*	*	*	*	*	*	*	*	*	*^	*	*	*	*	*
8AA'/L)	.	8A'/L)	.	8a'/L)	.	8a/L)|	.	2.r	.	2.r	.	8r	.	8AA/)	.	4r	.	8A/L)	2ryy	.	8a/L)	.	8aa\L)	.
(16GG#X/L	.	(16G#X/L	.	(16g#X/L	.	(16g#X/L	.	.	.	.	.	(16g#X/LL	.	(16G#X\LL	.	.	.	(16g#/L	.	.	(16g#X/L	.	(16gg#X\L	.
16BB/JJ	.	16B/JJ	.	16b/JJ	.	16b/JJ|	.	.	.	.	.	16b/JJ	.	16B\JJ	.	.	.	16b/JJ	.	.	16b/JJ	.	16bb\JJ	.
8AA/)	.	8A/)	.	8a/)	.	8a/)	.	.	.	.	.	8a/)	.	8A\)	.	8r	.	8a/)	.	.	8a/)	.	8aa\)	.
8r	.	8r	.	8r	.	8r	.	.	.	.	.	8r	.	8r	.	8g\L 8e\	.	8r	.	.	8r	.	8r	.
4r	.	4r	.	4r	.	4r	.	.	.	.	.	4r	.	8r	.	8f#\ 8d\	.	8r	4r	.	4r	.	8r	.
.	.	.	.	.	.	.	.	.	.	.	.	.	.	8A\	.	8e\J 8A\	.	8a/	.	.	.	.	8aa\	.
=9||	=9||	=9||	=9||	=9||	=9||	=9||	=9||	=9||	=9||	=9||	=9||	=9||	=9||	=9||	=9||	=9||	=9||	=9||	=9||	=9||	=9||	=9||	=9||	=9||
!	!LO:DY:rj	!	!	!	!	!	!	!	!	!	!	!	!	!	!	!	!	!	!	!	!	!	!LO:TX:a:t=[segno]	!
4D\	p	8r	.	8r	.	2.r	.	2.r	.	2.r	.	2.r	.	16f#\LL	.	8d/ 8F#/	.	(16ff#/LL	2.r	.	2.r	.	(16fff#\LL	.
.	.	.	.	.	.	.	.	.	.	.	.	.	.	16c#\	.	.	.	16cc#/	.	.	.	.	16ccc#\	.
.	.	8d\	sfp	8f#/ 8A/	sfp	.	.	.	.	.	.	.	.	16d\	.	8r	.	16dd/	.	.	.	.	16ddd\	.
.	.	.	.	.	.	.	.	.	.	.	.	.	.	16B\JJ	.	.	.	16b/JJ)	.	.	.	.	16bb\JJ)	.
4r	.	8d\L	.	8f#/L 8A/	.	.	.	.	.	.	.	.	.	(4.A\|	.	4r	.	(4.a/|	.	.	.	.	(4.aa\|	.
.	.	8d\	.	8f#/ 8A/	.	.	.	.	.	.	.	.	.	.	.	.	.	.	.	.	.	.	.	.
4r	.	8d\	.	8f#/ 8A/	.	.	.	.	.	.	.	.	.	.	.	4r	.	.	.	.	.	.	.	.
.	.	8d\J	.	8f#/J 8A/	.	.	.	.	.	.	.	.	.	8F#\)	.	.	.	8f#/)	.	.	.	.	8ff#\)	.
=10	=10	=10	=10	=10	=10	=10	=10	=10	=10	=10	=10	=10	=10	=10	=10	=10	=10	=10	=10	=10	=10	=10	=10	=10
4GG/	.	8r	.	8r	.	2.r	.	2.r	.	2.r	.	2.r	.	(16G\LL	.	2.r	.	(16g/LL	2.r	.	2.r	.	16gg\LL	.
.	.	.	.	.	.	.	.	.	.	.	.	.	.	16F#\	.	.	.	16f#/	.	.	.	.	16ff#\	.
.	.	8d\	sfp	8e/ 8B/	sfp	.	.	.	.	.	.	.	.	16G\	.	.	.	16g/	.	.	.	.	16gg\	.
.	.	.	.	.	.	.	.	.	.	.	.	.	.	16B\JJ)	.	.	.	16b/JJ)	.	.	.	.	16bb\JJ	.
4r	.	8d\L	.	8e/L 8B/	.	.	.	.	.	.	.	.	.	(4.e\	.	.	.	(4.ee/|	.	.	.	.	(4.eee\|	.
.	.	8d\	.	8e/ 8B/	.	.	.	.	.	.	.	.	.	.	.	.	.	.	.	.	.	.	.	.
4r	.	8d\	.	8e/ 8B/	.	.	.	.	.	.	.	.	.	.	.	.	.	.	.	.	.	.	.	.
.	.	8d\J	.	8e/J 8B/	.	.	.	.	.	.	.	.	.	8d\)	.	.	.	8dd/)	.	.	.	.	8ddd\)	.
!!LO:PB:g=original
=11	=11	=11	=11	=11	=11	=11	=11	=11	=11	=11	=11	=11	=11	=11	=11	=11	=11	=11	=11	=11	=11	=11	=11	=11
*	*	*	*	*	*	*	*	*	*	*	*	*^	*	*	*	*^	*	*	*	*	*	*	*	*
*	*	*	*	*	*	*	*	*	*	*	*	*	*	*	*2\right	*	*	*2\right	*	*	*	*	*	*	*	*
!	!	!	!	!	!	!	!	!	!LO:DY:rj	!	!	!	!	!	!	!	!	!	!	!	!	!	!	!	!	!
4AA/	.	8r	.	8r	.	4r	.	4AA/	p	2.r	.	(<16c#/LL	2.r	.	[2.A\	.	2.g/	2.e\	p	(16cc#/LL	2.r	.	4r	.	(16ccc#\LL	.
.	.	.	.	.	.	.	.	.	.	.	.	16e/JJ)	.	.	.	.	.	.	.	16ee/JJ	.	.	.	.	16eee\JJ	.
.	.	8e\	sfp	8g/ 8A/	sfp	.	.	.	.	.	.	4A'</	.	.	.	.	.	.	.	4a/)	.	.	.	.	4aa\)	.
4r	.	8e\L	.	8g/L 8A/	.	8r	.	4r	.	.	.	.	.	.	.	.	.	.	.	.	.	.	8r	.	.	.
.	.	8e\	.	8g/ 8A/	.	8a'\L	.	.	.	.	.	8A'</L	.	.	.	.	.	.	.	8r	.	.	8a'/L	.	8r	.
4r	.	8e\	.	8g/ 8A/	.	8b'\	.	4r	.	.	.	8B'</	.	.	.	.	.	.	.	4r	.	.	8b'/	.	4r	.
.	.	8e\J	.	8g/J 8A/	.	8cc#'\J	.	.	.	.	.	8c#'</J	.	.	.	.	.	.	.	.	.	.	8cc#'/J	.	.	.
=12	=12	=12	=12	=12	=12	=12	=12	=12	=12	=12	=12	=12	=12	=12	=12	=12	=12	=12	=12	=12	=12	=12	=12	=12	=12	=12
4D\	.	8r	.	8r	.	(16dd\LL	.	4D/	.	2.r	.	(<16d/LL	2.r	.	2.A\]	.	2.f#/	2.d\	.	2.rc	2.r	.	(16dd\LL	.	2.r	.
.	.	.	.	.	.	16cc#\	.	.	.	.	.	16c#/	.	.	.	.	.	.	.	.	.	.	16cc#\	.	.	.
.	.	8d\	sfp	8f#/ 8A/	sfp	16dd\	.	.	.	.	.	16d/	.	.	.	.	.	.	.	.	.	.	16dd\	.	.	.
.	.	.	.	.	.	16ff#\JJ)	.	.	.	.	.	16f#/JJ)	.	.	.	.	.	.	.	.	.	.	16ff#\JJ)	.	.	.
4r	.	8d\L	.	8f#/L 8A/	.	(4.bb\	.	4r	.	.	.	(<4.b/	.	.	.	.	.	.	.	.	.	.	(4.bb\	.	.	.
.	.	8d\	.	8f#/ 8A/	.	.	.	.	.	.	.	.	.	.	.	.	.	.	.	.	.	.	.	.	.	.
4r	.	8d\	.	8f#/ 8A/	.	.	.	4r	.	.	.	.	.	.	.	.	.	.	.	.	.	.	.	.	.	.
.	.	8d\J	.	8f#/J 8A/	.	8aa\)	.	.	.	.	.	8a/)	.	.	.	.	.	.	.	.	.	.	8aa\)	.	.	.
*	*	*	*	*	*	*	*	*	*	*	*	*v	*v	*	*	*	*v	*v	*	*	*	*	*	*	*	*
=13	=13	=13	=13	=13	=13	=13	=13	=13	=13	=13	=13	=13	=13	=13	=13	=13	=13	=13	=13	=13	=13	=13	=13	=13
4D\	.	8r	.	8r	.	2.r	.	2.r	.	2.r	.	2.r	.	(16f#\LL	.	2.r	.	16ff#/LL	2.r	.	2.r	.	16fff#\LL	.
.	.	.	.	.	.	.	.	.	.	.	.	.	.	16c#\	.	.	.	16cc#/	.	.	.	.	16ccc#\	.
.	.	8d\	.	8f#/ 8A/	sfp	.	.	.	.	.	.	.	.	16d\	.	.	.	16dd/	.	.	.	.	16ddd\	.
.	.	.	.	.	.	.	.	.	.	.	.	.	.	16B\JJ)	.	.	.	16b/JJ	.	.	.	.	16ccc#\JJ	.
4r	.	8d\L	.	8f#/L 8A/	.	.	.	.	.	.	.	.	.	4.A\	.	.	.	4.a/	.	.	.	.	4.aa\	.
.	.	8d\	.	8f#/ 8A/	.	.	.	.	.	.	.	.	.	.	.	.	.	.	.	.	.	.	.	.
4r	.	8d\	.	8f#/ 8A/	.	.	.	.	.	.	.	.	.	.	.	.	.	.	.	.	.	.	.	.
.	.	8d\J	.	8f#/J 8A/	.	.	.	.	.	.	.	.	.	8F#\	.	.	.	8f#/	.	.	.	.	8ff#\	.
=14	=14	=14	=14	=14	=14	=14	=14	=14	=14	=14	=14	=14	=14	=14	=14	=14	=14	=14	=14	=14	=14	=14	=14	=14
4GG/	.	8r	.	8r	.	2.r	.	2.r	.	2.r	.	2.r	.	16G\LL	.	2.r	.	16g/LL	2.r	.	2.r	.	16gg\LL	.
.	.	.	.	.	.	.	.	.	.	.	.	.	.	16F#\	.	.	.	16f#/	.	.	.	.	16ff#\	.
.	.	8d\	.	8e/ 8B/	sfp	.	.	.	.	.	.	.	.	16G\	.	.	.	16g/	.	.	.	.	16gg\	.
.	.	.	.	.	.	.	.	.	.	.	.	.	.	16B\JJ	.	.	.	16b/JJ	.	.	.	.	16bb\JJ	.
4r	.	8d\L	.	8e/L 8B/	.	.	.	.	.	.	.	.	.	4.e\	.	.	.	4.dd/	.	.	.	.	4.eee\	.
.	.	8d\	.	8e/ 8B/	.	.	.	.	.	.	.	.	.	.	.	.	.	.	.	.	.	.	.	.
4r	.	8d\	.	8e/ 8B/	.	.	.	.	.	.	.	.	.	.	.	.	.	.	.	.	.	.	.	.
.	.	8d\J	.	8e/J 8B/	.	.	.	.	.	.	.	.	.	8d\	.	.	.	8dd/	.	.	.	.	8ddd\	.
!!LO:PB:g=original
=15	=15	=15	=15	=15	=15	=15	=15	=15	=15	=15	=15	=15	=15	=15	=15	=15	=15	=15	=15	=15	=15	=15	=15	=15
*	*	*	*	*	*	*	*	*	*	*^	*	*	*	*	*	*^	*	*	*	*	*	*	*	*
!	!	!	!	!	!	!	!	!	!LO:DY:rj	!	!	!LO:DY:rj	!	!	!	!	!	!	!	!	!	!	!	!	!	!
4AA/	f	8r	f	8r	.	(16cc#\LL	f	4AA/	f	8G/	8C#\	f	16cc#/LL 16c#/	.	[2.A\	.	2.g/	2.e\	f	(16cc#/LL	2.r	.	4r	.	(16ccc#\LL	.
.	.	.	.	.	.	16ee\JJ)	.	.	.	.	.	.	16ee/JJ 16e/	.	.	.	.	.	.	16ee/JJ)	.	.	.	.	16eee\JJ	.
.	.	8e\ 8c#\	.	8g/ 8A/	.	4a/	.	.	.	4G/	4C#\	.	4a/ 4A/	.	.	.	.	.	.	4a/	.	.	.	.	4aa\)	.
4A\	.	8e\L 8c#\	.	8g/L 8A/	.	.	.	4A\	.	.	.	.	.	.	.	.	.	.	.	.	.	.	8r	.	.	.
.	.	8e\ 8c#\	.	8g/ 8A/	.	8a'/L	.	.	.	8r	8ryy	.	8a/L 8A'/	.	.	.	.	.	.	8r	.	.	8a'/L	.	8r	.
4AA/	.	8e\ 8c#\	.	8g/ 8A/	.	8b'/	.	4AA/	.	4r	4ryy	.	8b/ 8B'/	.	.	.	.	.	.	4r	.	.	8b'/	.	4r	.
.	.	8e\J 8c#\	.	8g/J 8A/	.	8cc#'/J	.	.	.	.	.	.	8cc#/J 8c#'/	.	.	.	.	.	.	.	.	.	8cc#'/J	.	.	.
*	*	*Xtremolo	*	*	*	*	*	*	*	*	*	*	*	*	*	*	*	*	*	*	*	*	*	*	*	*
*	*	*	*	*	*	*	*	*	*	*	*	*	*	*	*	*	*v	*v	*	*	*	*	*	*	*	*
=16	=16	=16	=16	=16	=16	=16	=16	=16	=16	=16	=16	=16	=16	=16	=16	=16	=16	=16	=16	=16	=16	=16	=16	=16	=16
8D/L	.	8d\L	.	8f#/L 8A/	.	8dd'\L	.	8D/L	.	8G/L	4C#\	.	8dd/L 8d/|	.	8A\L]	.	8f#\L 8d\	.	2.rc	8d'\L	.	8dd\L|	.	2.r	.
*	*	*	*	*	*	*	*	*	*	*tremolo	*	*	*	*	*	*	*	*	*	*	*	*	*	*	*
8AA/J	.	8c#\J	.	8g/J 8A/	.	(16ff#\L	.	8AA/J	.	32G/L	.	.	(16ff#/L 16a/	.	8c#\J	.	8e\J 8A\	.	.	(>16f#\L	.	(16ff#\L	.	.	.
.	.	.	.	.	.	.	.	.	.	32G/	.	.	.	.	.	.	.	.	.	.	.	.	.	.	.
.	.	.	.	.	.	16ee\JJ)	.	.	.	32G/	.	.	16ee/JJ 16g/)	.	.	.	.	.	.	16d\JJ)	.	16ee\JJ)	.	.	.
.	.	.	.	.	.	.	.	.	.	32G/JJ	.	.	.	.	.	.	.	.	.	.	.	.	.	.	.
8r	.	4c#\	.	4g/ 4A/	.	(4ee\	.	8r	.	4G/	4C#\	.	(4ee/ 4g/	.	4c#\	.	4e/ 4A/	.	.	4e\	.	(4ee\	.	.	.
8AA/L	.	.	.	.	.	.	.	8AA/L	.	.	.	.	.	.	.	.	.	.	.	.	.	.	.	.	.
8D/J	.	8d\	.	8f#/ 8A/	.	8dd\)	.	8D/J	.	8G/	8C#\	.	8dd/ 8f#/)	.	8d\	.	8d/ 8F#/	.	.	8d\	.	8dd\)	.	.	.
8r	.	8r	.	8r	.	8r	.	8r	.	8r	8ryy	.	8r	.	8r	.	8r	.	.	8r	.	8r	.	.	.
*	*	*	*	*	*	*	*	*	*	*v	*v	*	*	*	*	*	*	*	*	*	*	*	*	*	*
=17:|!	=17:|!	=17:|!	=17:|!	=17:|!	=17:|!	=17:|!	=17:|!	=17:|!	=17:|!	=17:|!	=17:|!	=17:|!	=17:|!	=17:|!	=17:|!	=17:|!	=17:|!	=17:|!	=17:|!	=17:|!	=17:|!	=17:|!	=17:|!;	=17:|!
*>B	*	*	*	*	*	*	*	*	*	*	*	*	*	*	*	*	*	*	*	*	*	*	*	*
!	!LO:DY:rj	!	!	!	!	!	!	!	!	!	!	!	!	!	!	!	!	!	!	!	!	!	!	!
8AA/	mf	8r	.	8r	.	4r	.	8A\	mf	2.r	.	4r	.	8r	.	8r	.	(16ee\LL 16cc#\	2.r	.	(16ccc#\LL	.	(16eee\LL	.
.	.	.	.	.	.	.	.	.	.	.	.	.	.	.	.	.	.	16dd\ 16b#X\	.	.	16bb#X\	.	16ddd#X\	.
!	!	!	!	!	!LO:DY:rj	!	!	!	!	!	!	!	!	!	!	!	!	!	!	!	!	!	!	!
8r	.	8e/ 8A/	.	8a/ 8c#/	mf	.	.	8r	.	.	.	.	.	8c#\	.	8e/ 8A/	.	16ee\ 16cc#\	.	.	16ccc#\	.	16eee\	.
.	.	.	.	.	.	.	.	.	.	.	.	.	.	.	.	.	.	16ff#\JJ 16dd\)	.	.	16ddd\JJ)	.	16fff#\JJ)	.
*	*	*rep	*	*rep	*	*	*	*	*	*	*	*	*	*rep	*	*rep	*	*	*	*	*	*	*	*
8A\	.	8r	.	8r	.	8r	.	8A\	.	.	.	8r	.	8r	.	8r	.	8ee\ 8cc#\	.	.	8ccc#\	.	8eee\	.
8r	.	8e/ 8A/	.	8a/ 8c#/	.	4aa\ 4cc#^<\	.	8r	.	.	.	4a/ 4c#^>/	.	8c#\	.	8e/ 8A/	.	4aa\ 4cc#^<\	.	.	4ccc#^<\	.	4aaa^<\	.
*	*	*Xrep	*	*Xrep	*	*	*	*	*	*	*	*	*	*Xrep	*	*Xrep	*	*	*	*	*	*	*	*
*	*	*rep	*	*rep	*	*	*	*	*	*	*	*	*	*rep	*	*rep	*	*	*	*	*	*	*	*
8A\	.	8r	.	8r	.	.	.	8A\	.	.	.	.	.	8r	.	8r	.	.	.	.	.	.	.	.
8r	.	8e/ 8A/	.	8a/ 8c#/	.	8cc#\ 8a\	.	8r	.	.	.	8c#/ 8A/	.	8c#\	.	8e/ 8A/	.	8cc#\ 8a\	.	.	8aa\	.	8ccc#\	.
*	*	*Xrep	*	*Xrep	*	*	*	*	*	*	*	*	*	*Xrep	*	*Xrep	*	*	*	*	*	*	*	*
*	*	*	*	*	*	*	*	*	*	*	*	*	*	*	*	*	*	*v	*v	*	*	*	*	*
=18	=18	=18	=18	=18	=18	=18	=18	=18	=18	=18	=18	=18	=18	=18	=18	=18	=18	=18	=18	=18	=18	=18	=18
*	*	*	*	*	*	*	*	*	*	*	*	*	*	*	*	*^	*	*	*	*	*	*	*
8E\	.	8r	.	8r	.	4r	.	8E\	.	2.r	.	4r	.	8r	.	8r	8ryy	.	(16dd\LL 16b\	.	(16bb\LL	.	(16ddd\LL	.
.	.	.	.	.	.	.	.	.	.	.	.	.	.	.	.	.	.	.	16cc#\ 16a#X\	.	16aan\	.	16ccc#\	.
8r	.	8e\ 8B\	.	8g#X/ 8d/	.	.	.	8r	.	.	.	.	.	8B\	.	8e/	8d\	.	16dd\ 16b\	.	16bb\	.	16ddd\	.
.	.	.	.	.	.	.	.	.	.	.	.	.	.	.	.	.	.	.	16ee\JJ 16cc#\)	.	16ccc#\JJ)	.	16eee\JJ)	.
*rep	*	*rep	*	*rep	*	*	*	*	*	*	*	*	*	*rep	*	*rep	*rep	*	*	*	*	*	*	*
8E\	.	8r	.	8r	.	8r	.	8E\	.	.	.	8r	.	8r	.	8r	8ryy	.	8dd\ 8b\	.	8bb\	.	8ddd\	.
8r	.	8e\ 8B\	.	8g#/ 8d/	.	4ff#\ 4dd^<\	.	8r	.	.	.	4f#/ 4d^>/	.	8B\	.	8e/	8d\	.	4ff#\ 4dd^>\	.	4ddd^<\	.	4fff#^\	.
*Xrep	*	*Xrep	*	*Xrep	*	*	*	*	*	*	*	*	*	*Xrep	*	*Xrep	*Xrep	*	*	*	*	*	*	*
*rep	*	*rep	*	*rep	*	*	*	*	*	*	*	*	*	*rep	*	*rep	*rep	*	*	*	*	*	*	*
8E\	.	8r	.	8r	.	.	.	8E\	.	.	.	.	.	8r	.	8r	8ryy	.	.	.	.	.	.	.
!	!	!	!	!	!	!LO:SIC:v:s=8g#	!	!	!	!	!	!	!	!	!	!	!	!	!	!	!	!	!	!
8r	.	8e\ 8B\	.	8g#/ 8d/	.	8b/ 8g/	.	8r	.	.	.	8B/ 8G#X/	.	8B\	.	8e/	8d\	.	16b\LL 16g\	.	16gg#X\LL	.	16bb\LL	.
.	.	.	.	.	.	.	.	.	.	.	.	.	.	.	.	.	.	.	16ee\JJ 16b\	.	16bb\JJ	.	16ddd\JJ	.
*Xrep	*	*Xrep	*	*Xrep	*	*	*	*	*	*	*	*	*	*Xrep	*	*Xrep	*Xrep	*	*	*	*	*	*	*
*	*	*	*	*	*	*	*	*	*	*	*	*	*	*	*	*v	*v	*	*	*	*	*	*	*
!!LO:PB:g=original
=19	=19	=19	=19	=19	=19	=19	=19	=19	=19	=19	=19	=19	=19	=19	=19	=19	=19	=19	=19	=19	=19	=19	=19
8F#\	.	8r	.	8r	.	4r	.	8F#\	.	2.r	.	2.r	.	8r	.	8r	.	(16cc#\LL 16a\	.	(16aa\LL	.	(16ccc#\LL	.
.	.	.	.	.	.	.	.	.	.	.	.	.	.	.	.	.	.	16b#X\ 16g#\	.	16gg#X\	.	16bb#X\	.
8r	.	8f#/ 8A/	.	8a/ 8c#/	.	.	.	8r	.	.	.	.	.	8c#\	.	8f#\ 8c#\	.	16cc#\ 16a\	.	16aa\	.	16ccc#\	.
.	.	.	.	.	.	.	.	.	.	.	.	.	.	.	.	.	.	16dd\JJ 16b#\)	.	16bb\JJ)	.	16ddd\JJ)	.
*rep	*	*rep	*	*rep	*	*	*	*	*	*	*	*	*	*rep	*	*rep	*	*	*	*	*	*	*
8F#\	.	8r	.	8r	.	4r	.	8F#\	.	.	.	.	.	8r	.	8r	.	4.cc#\ 4.a\	.	4.aa\	.	4.ccc#\	.
8r	.	8f#/ 8A/	.	8a/ 8c#/	.	.	.	8r	.	.	.	.	.	8c#\	.	8f#\ 8c#\	.	.	.	.	.	.	.
*Xrep	*	*Xrep	*	*Xrep	*	*	*	*	*	*	*	*	*	*Xrep	*	*Xrep	*	*	*	*	*	*	*
*rep	*	*rep	*	*rep	*	*	*	*	*	*	*	*	*	*rep	*	*rep	*	*	*	*	*	*	*
8F#\	.	8r	.	8r	.	8r	.	8F#\	.	.	.	.	.	8r	.	8r	.	.	.	.	.	.	.
8r	.	8f#/ 8A/	.	8a/ 8c#/	.	8aa\	.	8r	.	.	.	.	.	8c#\	.	8f#\ 8c#\	.	8a\ 8f#\	.	8ff#\	.	8aa\	.
*Xrep	*	*Xrep	*	*Xrep	*	*	*	*	*	*	*	*	*	*Xrep	*	*Xrep	*	*	*	*	*	*	*
=20	=20	=20	=20	=20	=20	=20	=20	=20	=20	=20	=20	=20	=20	=20	=20	=20	=20	=20	=20	=20	=20	=20	=20
*	*	*	*	*	*	*	*	*	*	*	*	*^	*	*	*	*^	*	*	*	*	*	*	*
8BB\	.	8r	.	8r	.	16bb\LL	.	4BB/	.	2.r	.	(16b/LL	8r	.	8r	.	8r	8ryy	.	(16b\LL	.	(16bb\LL	.	(16bb\LL	.
.	.	.	.	.	.	16aa\	.	.	.	.	.	16a/	.	.	.	.	.	.	.	16a\	.	16aa\	.	16aa\	.
8r	.	8d#X\L	.	8a/L 8B/	.	16gg#X\	.	.	.	.	.	16g#X/	8B\L	.	8A\L	.	8f#/L	8d#X\L	.	16g#\	.	16gg#X\	.	16gg#X\	.
.	.	.	.	.	.	16ff#\JJ	.	.	.	.	.	16f#/JJ	.	.	.	.	.	.	.	16f#\JJ	.	16ff#\JJ	.	16ff#\JJ	.
8E\	.	8e\J	.	8g#X/J 8B/	.	8ee\	.	8E\	.	.	.	8e/)	8B\J	.	8G#X\J	.	8e/J	8e\J	.	16e/)	.	16ee\)	.	16ee\)	.
.	.	.	.	.	.	.	.	.	.	.	.	.	.	.	.	.	.	.	.	16e'/LL	<	16ee'\LL	.	16ee'\LL	.
8r	.	8r	.	8r	.	8r	.	8r	.	.	.	8r	8ryy	.	8r	.	8r	8ryy	.	16f#/ 16d#X'/	.	16dd#X'\	.	16ff#'\	.
.	.	.	.	.	.	.	.	.	.	.	.	.	.	.	.	.	.	.	.	16g#/JJ 16e/	.	16ee\JJ	.	16gg#X\JJ	.
4r	.	4r	.	4r	.	4r	.	4r	.	.	.	4r	4ryy	.	4r	.	4r	4ryy	.	16a/LL 16f#'/	.	16ff#'\LL	.	16aa'\LL	.
.	.	.	.	.	.	.	.	.	.	.	.	.	.	.	.	.	.	.	.	16b/ 16g#'/	.	16gg#X'\	.	16bb'\	.
.	.	.	.	.	.	.	.	.	.	.	.	.	.	.	.	.	.	.	.	16cc#/ 16a'/	.	16aa'\	.	16ccc#'\	.
.	.	.	.	.	.	.	.	.	.	.	.	.	.	.	.	.	.	.	.	16dd/JJ 16b'/	[[	16bb'\JJ	.	16ddd'\JJ	.
*	*	*	*	*	*	*	*	*	*	*	*	*v	*v	*	*	*	*v	*v	*	*	*	*	*	*	*
=21	=21	=21	=21	=21	=21	=21	=21	=21	=21	=21	=21	=21	=21	=21	=21	=21	=21	=21	=21	=21	=21	=21	=21
*	*	*	*	*	*	*	*	*	*	*^	*	*	*	*	*	*	*	*	*	*	*	*	*
!	!	!	!	!	!	!	!	!	!	!	!	!	!	!	!	!	!	!	!	!	!	!LO:DY:a	!	!
8AA/	f	8r	.	8r	f	4r	.	8AA/	f	8r	4C#\	f	16e/LL 16c#/	.	8r	.	8r	.	(16ee\LL 16cc#\	f	(16ccc#\LL	f	(16eee\LL	.
.	.	.	.	.	.	.	.	.	.	.	.	.	16d#X/ 16B#X/	.	.	.	.	.	16dd#X\ 16b#X\	.	16bb#X\	.	16ddd#X\	.
*	*	*	*	*	*	*	*	*	*	*tremolo	*	*	*	*	*	*	*	*	*	*	*	*	*	*
8r	.	8a\ 8e\ 8A\	.	8aa\ 8cc#\ 8e\	.	.	.	8r	.	32G/LLL	.	.	16e/ 16c#/	.	8c#\	.	8e/ 8A/	.	16ee\ 16cc#\	.	16ccc#\	.	16eee\	.
.	.	.	.	.	.	.	.	.	.	32G/	.	.	.	.	.	.	.	.	.	.	.	.	.	.
.	.	.	.	.	.	.	.	.	.	32G/	.	.	16f#/JJ 16d#/	.	.	.	.	.	16ff#\JJ 16dd#\	.	16ddd\JJ	.	16fff#\JJ	.
.	.	.	.	.	.	.	.	.	.	32G/JJ	.	.	.	.	.	.	.	.	.	.	.	.	.	.
*	*	*rep	*	*rep	*	*	*	*	*	*	*	*	*	*	*rep	*	*rep	*	*	*	*	*	*	*
8A\	.	8r	.	8r	.	8r	.	8A\	.	8G/J	4C#\	.	8e/ 8c#/	.	8r	.	8r	.	8ee\ 8cc#\)	.	8ccc#\)	.	8eee\)	.
8r	.	8a\ 8e\ 8A\	.	8aa\ 8cc#\ 8e\	.	(16ccc#\LL 16aa\	.	8r	.	32G//LLL	.	.	(16cc#/LL 16a/	.	8c#\	.	8e/ 8A/	.	8r	.	(16aa\LL	.	(16ccc#\LL	.
.	.	.	.	.	.	.	.	.	.	32G/	.	.	.	.	.	.	.	.	.	.	.	.	.	.
.	.	.	.	.	.	16bb\JJ 16gg#X\	.	.	.	32G/	.	.	16b/JJ 16g#X/	.	.	.	.	.	.	.	16gg#X\JJ	.	16bb\JJ	.
.	.	.	.	.	.	.	.	.	.	32G/JJ	.	.	.	.	.	.	.	.	.	.	.	.	.	.
*	*	*Xrep	*	*Xrep	*	*	*	*	*	*	*	*	*	*	*Xrep	*	*Xrep	*	*	*	*	*	*	*
*	*	*rep	*	*rep	*	*	*	*	*	*	*	*	*	*	*rep	*	*rep	*	*	*	*	*	*	*
8A\	.	8r	.	8r	.	16aa\LL 16ff#\	.	8A\	.	8G/	4C#\	.	16a/LL 16f#/	.	8r	.	8r	.	4r	.	16ff#\LL	.	16aa\LL	.
.	.	.	.	.	.	16gg#X\ 16ee\	.	.	.	.	.	.	16g#X/ 16e/	.	.	.	.	.	.	.	16ee\	.	16gg#X\	.
8r	.	8a\ 8e\ 8A\	.	8aa\ 8cc#\ 8e\	.	16ff#\ 16dd\	.	8r	.	32G/LL	.	.	16f#/ 16d#/	.	8c#\	.	8e/ 8A/	.	.	.	16dd\	.	16ff#\	.
.	.	.	.	.	.	.	.	.	.	32G/	.	.	.	.	.	.	.	.	.	.	.	.	.	.
.	.	.	.	.	.	16ee\JJ 16cc#\)	.	.	.	32G/	.	.	16e/JJ 16c#/)	.	.	.	.	.	.	.	16cc#\JJ)	.	16ee\JJ)	.
.	.	.	.	.	.	.	.	.	.	32G/JJJ	.	.	.	.	.	.	.	.	.	.	.	.	.	.
*	*	*Xrep	*	*Xrep	*	*	*	*	*	*	*	*	*	*	*Xrep	*	*Xrep	*	*	*	*	*	*	*
*	*	*	*	*	*	*	*	*	*	*v	*v	*	*	*	*	*	*	*	*	*	*	*	*	*
!!LO:PB:g=original
=22	=22	=22	=22	=22	=22	=22	=22	=22	=22	=22	=22	=22	=22	=22	=22	=22	=22	=22	=22	=22	=22	=22	=22
!	!	!	!	!	!	!	!	!LO:TX:a:t=Banda	!	!omb.	!	!	!	!	!	!	!	!	!	!	!	!	!
.	.	.	.	.	.	.	.	.	.	.	.	.	.	.	.	.	.	.	.	(>8qb/	.	(>8qdd/	.
*	*	*	*	*	*	*	*	*^	*	*	*	*	*	*	*	*^	*	*	*	*	*	*	*
8E\	.	8r	.	8r	.	4r	.	8G/L	4C#\	.	8E\	.	(16d/LL 16B/	.	8r	.	8r	8r	.	(16dd\LL 16b\	f	16bb\LL	.	16ddd\LL	.
.	.	.	.	.	.	.	.	.	.	.	.	.	16c#/ 16A#X/	.	.	.	.	.	.	16cc#\ 16a#X\	.	16aa#X\	.	16ccc#\	.
*	*	*	*	*	*	*	*	*tremolo	*	*	*	*	*	*	*	*	*	*	*	*	*	*	*	*	*
8r	.	8ee\ 8e\	.	8gg#X\ 8b\ 8e\	.	.	.	32G/LL	.	.	8r	.	16d/ 16B/	.	8B\	.	8e/	8d\	.	16dd\ 16b\	.	16bb\	.	16ddd\	.
.	.	.	.	.	.	.	.	32G/	.	.	.	.	.	.	.	.	.	.	.	.	.	.	.	.	.
.	.	.	.	.	.	.	.	32G/	.	.	.	.	16e/JJ 16c#/	.	.	.	.	.	.	16ee\JJ 16cc#\	.	16ccc#\JJ)	.	16eee\JJ)	.
.	.	.	.	.	.	.	.	32G/JJJ	.	.	.	.	.	.	.	.	.	.	.	.	.	.	.	.	.
*	*	*rep	*	*rep	*	*	*	*rep	*	*	*	*	*	*	*rep	*	*rep	*rep	*	*	*	*	*	*	*
8E\	.	8r	.	8r	.	8r	.	8G/L	4C#\	.	8E\	.	8d/ 8B/)	.	8r	.	8r	8ryy	.	8dd\ 8b\)	.	8bb\L	.	8ddd\L	.
8r	.	8ee\ 8e\	.	8gg#\ 8b\ 8e\	.	(16bb\LL 16gg#X\	.	32G/LL	.	.	8r	.	(16b/LL 16g#X/	.	8B\	.	8e/	8d\	.	8r	.	16bb\L	.	(16ggg#X\L	.
.	.	.	.	.	.	.	.	32G/	.	.	.	.	.	.	.	.	.	.	.	.	.	.	.	.	.
.	.	.	.	.	.	16aa\JJ 16ff#\	.	32G/	.	.	.	.	16a/JJ 16f#/	.	.	.	.	.	.	.	.	16aa#\JJ	.	16fff#\JJ	.
.	.	.	.	.	.	.	.	32G/JJJ	.	.	.	.	.	.	.	.	.	.	.	.	.	.	.	.	.
*	*	*Xrep	*	*Xrep	*	*	*	*Xrep	*	*	*	*	*	*	*Xrep	*	*Xrep	*Xrep	*	*	*	*	*	*	*
*	*	*rep	*	*rep	*	*	*	*rep	*	*	*	*	*	*	*rep	*	*rep	*rep	*	*	*	*	*	*	*
8E\	.	8r	.	8r	.	16gg#X\LL 16ee\	.	8G/L	4C#\	.	8E\	.	16g#X/LL 16e/	.	8r	.	8r	8ryy	.	4r	.	16gg#X\LL	.	16eee\LL	.
.	.	.	.	.	.	16ff#\ 16dd\	.	.	.	.	.	.	16f#/ 16d/	.	.	.	.	.	.	.	.	16ff#\	.	16ddd\	.
8r	.	8ee\ 8e\	.	8gg#\ 8b\ 8e\	.	16ee\ 16cc#\	.	32G//LL	.	.	8r	.	16e/ 16c#/	.	8B\	.	8e/	8d\	.	.	.	16ee\	.	16ccc#\	.
.	.	.	.	.	.	.	.	32G/	.	.	.	.	.	.	.	.	.	.	.	.	.	.	.	.	.
.	.	.	.	.	.	16dd\JJ 16b\)	.	32G/	.	.	.	.	16d/JJ 16B/)	.	.	.	.	.	.	.	.	16dd\JJ	.	16bb\JJ)	.
.	.	.	.	.	.	.	.	32G/JJJ	.	.	.	.	.	.	.	.	.	.	.	.	.	.	.	.	.
*	*	*Xrep	*	*Xrep	*	*	*	*Xrep	*	*	*	*	*	*	*Xrep	*	*Xrep	*Xrep	*	*	*	*	*	*	*
*	*	*	*	*	*	*	*	*Xtremolo	*	*	*	*	*	*	*	*	*	*	*	*	*	*	*	*	*
*	*	*	*	*	*	*	*	*v	*v	*	*	*	*	*	*	*	*v	*v	*	*	*	*	*	*	*
=23	=23	=23	=23	=23	=23	=23	=23	=23	=23	=23	=23	=23	=23	=23	=23	=23	=23	=23	=23	=23	=23	=23	=23
!	!	!	!	!	!	!	!	!	!	!	!	!	!	!	!	!	!	!	!LO:DY:rj	!LO:TX:a:t=col Fl. 8va	!	!	!
8A\	mf	8r	.	8r	.	(16cc#\LL	.	2.r	.	2.r	.	2.r	.	2A\	mf	2e/ 2A/	.	2a/ 2c#/	mf	(16cc#\LLyy	.	(16ccc#\LL	.
.	.	.	.	.	mf	16b#X\	.	.	.	.	.	.	.	.	.	.	.	.	.	16b#X\yy	.	16bb#X\	.
8r	.	8e/ 8A/	.	8a/ 8c#/	.	16cc#\	.	.	.	.	.	.	.	.	.	.	.	.	.	16cc#\yy	.	16ccc#\	.
.	.	.	.	.	.	16dd\JJ	.	.	.	.	.	.	.	.	.	.	.	.	.	16dd\JJyy	.	16ddd\JJ	.
8A\	.	8r	.	8r	.	16cc#\LL)	.	.	.	.	.	.	.	.	.	.	.	.	.	16cc#\LL)yy	.	16ccc#\LL)	.
.	.	.	.	.	.	16ee'\	.	.	.	.	.	.	.	.	.	.	.	.	.	16ee\yy|	.	16eee\|	.
8r	.	8e/ 8A/	.	8a/ 8c#/	.	(16aa\	.	.	.	.	.	.	.	.	.	.	.	.	.	(16aa\yy	.	(16aaa\	.
.	.	.	.	.	.	16gg#X\JJ)	.	.	.	.	.	.	.	.	.	.	.	.	.	16gg#X\JJyy	.	16ggg#X\JJ	.
8D\	.	8r	.	8r	.	(16bb\LL	.	.	.	.	.	.	.	4D\	.	4f#\ 4d\	.	4g/ 4B/	.	16bb\LLyy	.	16bbb\LL	.
.	.	.	.	.	.	16aa\	.	.	.	.	.	.	.	.	.	.	.	.	.	16aa\yy	.	16aaa\	.
8r	.	8f#\ 8d\	.	8b/ 8d/	.	16ff#\	.	.	.	.	.	.	.	.	.	.	.	.	.	16gg#\yy	.	16ggg#\	.
.	.	.	.	.	.	16dd\JJ)	.	.	.	.	.	.	.	.	.	.	.	.	.	16ff#\JJyy	.	16fff#\JJ	.
=24	=24	=24	=24	=24	=24	=24	=24	=24	=24	=24	=24	=24	=24	=24	=24	=24	=24	=24	=24	=24	=24	=24	=24
*	*	*	*	*	*	*	*	*	*	*	*	*^	*	*	*	*	*	*^	*	*	*	*	*
*	*	*	*	*	*	*	*	*	*	*	*	*	*	*	*tremolo	*	*	*	*	*	*	*	*	*	*
!	!	!	!	!	!	!	!	!	!	!	!	!	!	!	!	!	!	!	!LO:TX:t=P:problem:dźwięki w całym takcie nie pasują	!	!	!	!	!	!
8E\L	.	8e/L 8A/	.	8a/L 8c#/	.	(16cc#\LL	.	2.r	.	2.r	.	4r	4ryy	.	8E\L	.	8e/L 8A/	.	8f#/L 8A/	2ryy	.	16cc#\LL)yy	.	16ccc#\LL)	.
.	.	.	.	.	.	16ee'\	.	.	.	.	.	.	.	.	.	.	.	.	.	.	.	(16ee\yy	.	(16eee\	.
8E\J	.	8e/J 8A/	.	8g#X/J 8d/	.	16dd\	.	.	.	.	.	.	.	.	8E\	.	8e/J 8d/	.	8e#X/J 8G/	.	.	16dd\yy	.	16ddd\	.
.	.	.	.	.	.	16b\JJ)	.	.	.	.	.	.	.	.	.	.	.	.	.	.	.	16b\JJyy	.	16bb\JJ	.
*	*	*rep	*	*rep	*	*	*	*	*	*	*	*	*	*	*	*	*	*	*	*	*	*	*	*	*
8E\L	.	8e/L 8A/	.	8a/L 8c#/	.	(16a/LL	.	.	.	.	.	4r	4ryy	.	8E\	.	8e/L 8A/	.	8f#/L 8A/	.	.	16a/LL)yy	.	16aa\LL)	.
.	.	.	.	.	.	16cc#/	.	.	.	.	.	.	.	.	.	.	.	.	.	.	.	(>16cc#/yy	.	(16ccc#\	.
8E\J	.	8e\J 8A\	.	8g#X/J 8d/	.	16b/	.	.	.	.	.	.	.	.	8E\J	.	8e/J 8d/	.	8e#/J 8G/	.	.	16b/yy	.	16bb\	.
.	.	.	.	.	.	16g#X/JJ)	.	.	.	.	.	.	.	.	.	.	.	.	.	.	.	16g#X/JJyy	.	16gg#X\JJ	.
*	*	*Xrep	*	*Xrep	*	*	*	*	*	*	*	*	*	*	*Xtremolo	*	*	*	*	*	*	*	*	*	*
*	*	*	*	*Xtremolo	*	*	*	*	*	*	*	*	*	*	*	*	*	*	*	*	*	*	*	*	*
8AA/	.	8e/L 8A/	.	8a/L 8c#/	.	8a/	.	.	.	.	.	8r	8r	.	8A\	.	8e/ 8A/	.	8f#/ 8A/	8ryy	.	8a/L)yy	.	8aa\L)	.
8ryy	.	8ryy	.	8ryy	.	8a/	.	.	.	.	.	8a/	8a\	.	8r	.	8r	.	8f#/	8f#\	.	8a/Jyy	.	8aa\J	.
!!LO:PB:g=original
=25	=25	=25	=25	=25	=25	=25	=25	=25	=25	=25	=25	=25	=25	=25	=25	=25	=25	=25	=25	=25	=25	=25	=25	=25	=25
*	*	*	*	*	*	*	*	*	*	*^	*	*	*	*	*	*	*	*	*	*	*	*	*	*	*
*tremolo	*	*tremolo	*	*tremolo	*	*	*	*	*	*	*	*	*	*	*	*	*	*	*	*	*	*	*	*	*	*
!	!	!	!	!	!LO:DY:rj	!	!LO:DY:rj	!	!	!	!	!	!	!	!	!	!	!	!LO:DY:rj	!	!	!LO:DY:rj	!LO:TX:a:t=Col v°. I°.	!	!LO:TX:a:t=Col v°. I°. 8va	!
8BB-X/L	f	16d\LL	.	16d/LL 16B-X/	f	(16dd\LL	f	2.BB-X/	.	2.GTT/	4C#\	.	8dd/L	8dd\L	.	2.B-X\	.	2.d/ 2.D/	f	2.dd/ 2.d/	2.r	f	16dd\LLyy	f	16ddd\LLyy	f
.	.	16d\	.	16d/ 16B-/	.	16cc#\	.	.	.	.	.	.	.	.	.	.	.	.	.	.	.	.	16cc#\yy	.	16ccc#\yy	.
8BB-/	.	16d\	.	16d/ 16B-/	.	16dd\	.	.	.	.	.	.	16dd/L	16dd\L	.	.	.	.	.	.	.	.	16dd\yy	.	16ddd\yy	.
.	.	16d\	.	16d/ 16B-/	.	16ee\JJ	.	.	.	.	.	.	16dd/JJ	16dd\JJ	.	.	.	.	.	.	.	.	16ee\JJyy	.	16eee\JJyy	.
*	*	*	*	*	*	*	*	*	*	*	*	*	*tremolo	*tremolo	*	*	*	*	*	*	*	*	*	*	*	*
8BB-/	.	16d\	.	16d/ 16B-/	.	16ffn\LL)	.	.	.	.	4C#\	.	8dd/L	8dd\L	.	.	.	.	.	.	.	.	16ffn\LLyy	.	16fffn\LLyy	.
.	.	16d\	.	16d/ 16B-/	.	(16cc#\	.	.	.	.	.	.	.	.	.	.	.	.	.	.	.	.	16cc#\yy	.	16ccc#\yy	.
8BB-/	.	16d\	.	16d/ 16B-/	.	16dd\	.	.	.	.	.	.	8dd/	8dd\	.	.	.	.	.	.	.	.	16dd\yy	.	16ddd\yy	.
.	.	16d\	.	16d/ 16B-/	.	16ee\JJ	.	.	.	.	.	.	.	.	.	.	.	.	.	.	.	.	16ee\JJyy	.	16eee\JJyy	.
8BB-/	.	16d\	.	16d/ 16B-/	.	16ff\LL	.	.	.	.	4C#\	.	8dd/	8dd\	.	.	.	.	.	.	.	.	16ff\LLyy	.	16fff\LLyy	.
.	.	16d\	.	16d/ 16B-/	.	16ff#X\	.	.	.	.	.	.	.	.	.	.	.	.	.	.	.	.	16ff#X\yy	.	16fff#X\yy	.
8BB-/J	.	16d\	.	16d/ 16B-/	.	16gg\	.	.	.	.	.	.	8dd/J	8dd\J	.	.	.	.	.	.	.	.	16gg\yy	.	16ggg\yy	.
.	.	16d\JJ	.	16d/JJ 16B-/	.	16gg#X\JJ)	.	.	.	.	.	.	.	.	.	.	.	.	.	.	.	.	16gg#X\JJyy	.	16ggg#X\JJyy	.
*Xtremolo	*	*Xtremolo	*	*Xtremolo	*	*	*	*	*	*	*	*	*Xtremolo	*Xtremolo	*	*	*	*	*	*	*	*	*	*	*	*
=26	=26	=26	=26	=26	=26	=26	=26	=26	=26	=26	=26	=26	=26	=26	=26	=26	=26	=26	=26	=26	=26	=26	=26	=26	=26	=26
8AA/	.	8c#\	.	8e/ 8A/	.	8aa\L	.	8AA/	.	8G/	8C#\	.	8a/	8a\	.	8A\	.	8e/ 8A/ 8AA/	.	8cc#/ 8e/	8ryy	.	8aa\Lyy	.	8aaa\Lyy	.
(32E/LLL	.	(32e\LLL	.	(32ee\LLL	.	(32ee\LL	.	8r	.	8r	8ryy	.	8r	8ryy	.	8r	.	8r	.	8r	8ryy	.	(32ee\LLyy	.	(32eee\LLyy	.
32D/	.	32d\	.	32dd\	.	32dd\	.	.	.	.	.	.	.	.	.	.	.	.	.	.	.	.	32dd\yy	.	32ddd\yy	.
32C#/	.	32c#'\	.	32cc#\	.	32cc#\	.	.	.	.	.	.	.	.	.	.	.	.	.	.	.	.	32cc#\yy	.	32ccc#\yy	.
32BB/JJJ	.	32B\JJJ	.	32b\JJJ	.	32b\JJJ	.	.	.	.	.	.	.	.	.	.	.	.	.	.	.	.	32b\JJJyy	.	32bb\JJJyy	.
8AA/)	.	8A/)	.	8a/)	.	8a/)	.	2r	.	2r	2ryy	.	2r	2ryy	.	8.r	.	4r	.	8.r	8.ryy	.	8a/)yy	.	8aa\)yy	.
8r	.	8r	.	8r	.	8r	.	.	.	.	.	.	.	.	.	.	.	.	.	.	.	.	8ryy	.	8ryy	.
*	*	*	*	*	*	*	*	*	*	*	*	*	*	*	*	*clefC4	*	*	*	*	*	*	*	*	*	*
.	.	.	.	.	.	.	.	.	.	.	.	.	.	.	.	16g\|	.	.	.	16cc#/|	16a\	.	.	.	.	.
4r	.	4r	.	4r	.	4r	.	.	.	.	.	.	.	.	.	(16fn\LL	.	4r	.	(16dd/LL	8a\L	.	4ryy	.	4ryy	.
.	.	.	.	.	.	.	.	.	.	.	.	.	.	.	.	16e\	.	.	.	16cc#/	.	.	.	.	.	.
.	.	.	.	.	.	.	.	.	.	.	.	.	.	.	.	16f\	.	.	.	16dd/	8a\J	.	.	.	.	.
.	.	.	.	.	.	.	.	.	.	.	.	.	.	.	.	16d\JJ)	.	.	.	16ffX/JJ	.	.	.	.	.	.
*	*	*	*	*	*	*	*	*	*	*v	*v	*	*	*	*	*	*	*	*	*	*	*	*	*	*	*
*	*	*	*	*	*	*	*	*	*	*	*	*v	*v	*	*	*	*	*	*	*	*	*	*	*	*
=27	=27	=27	=27	=27	=27	=27	=27	=27	=27	=27	=27	=27	=27	=27	=27	=27	=27	=27	=27	=27	=27	=27	=27	=27
8r	.	8r	.	8r	.	8r	.	2.r	.	2.r	.	2.r	.	8c#\	.	2.r	.	8ee/)	8a\	.	8ryy	.	8ryy	.
(32E/LLL	.	(32e\LLL	.	(32ee\LLL	.	(32ee\LLL	.	.	.	.	.	.	.	8r	.	.	.	8r	8r	.	(32ee\LLLyy	.	(32eee\LLLyy	.
32D/	.	32d\	.	32dd\	.	32dd\	.	.	.	.	.	.	.	.	.	.	.	.	.	.	32dd\yy	.	32ddd\yy	.
32C#/	.	32c#\	.	32cc#\	.	32cc#\	.	.	.	.	.	.	.	.	.	.	.	.	.	.	32cc#\yy	.	32ccc#\yy	.
32BB/JJJ	.	32B\JJJ	.	32b\JJJ	.	32b\JJJ	.	.	.	.	.	.	.	.	.	.	.	.	.	.	32b\JJJyy	.	32bb\JJJyy	.
!	!	!	!	!	!	!	!	!	!	!	!	!	!	!	!	!	!	!LO:N:vis=8	!	!	!	!	!	!
8AA/)	.	8A/)	.	8a/)	.	8a/)	.	.	.	.	.	.	.	8.r	.	.	.	8.r	8.r	.	8a/)yy	.	8aa\)yy	.
8r	.	8r	.	8r	.	8r	.	.	.	.	.	.	.	.	.	.	.	.	.	.	8ryy	.	8ryy	.
.	.	.	.	.	.	.	.	.	.	.	.	.	.	16g\|	.	.	.	16dd/|	16a\	.	.	.	.	.
4r	.	4r	.	4r	.	4r	.	.	.	.	.	.	.	(16fn\LL	.	.	.	(16dd/LL	8a\L	.	4ryy	.	4ryy	.
.	.	.	.	.	.	.	.	.	.	.	.	.	.	16e\	.	.	.	16cc#/	.	.	.	.	.	.
.	.	.	.	.	.	.	.	.	.	.	.	.	.	16f\	.	.	.	16dd/	8a\J	.	.	.	.	.
.	.	.	.	.	.	.	.	.	.	.	.	.	.	16d\JJ)	.	.	.	16ffX/JJ)	.	.	.	.	.	.
!!LO:LB:g=original
=28	=28	=28	=28	=28	=28	=28	=28	=28	=28	=28	=28	=28	=28	=28	=28	=28	=28	=28	=28	=28	=28	=28	=28	=28
.	.	.	.	.	.	.	.	.	.	16qqG/LL	.	.	.	.	.	.	.	.	.	.	.	.	.	.
.	.	.	.	.	.	.	.	.	.	16qqG/JJ	.	.	.	.	.	.	.	.	.	.	.	.	.	.
*	*	*	*	*	*	*	*	*	*	*^	*	*	*	*	*	*	*	*	*	*	*	*	*	*
*	*	*	*	*	*	*	*	*	*	*	*	*	*	*	*clefF4	*	*	*	*	*	*	*	*	*	*
4A\	.	4a\ 4e\ 4A\	.	4aa\ 4cc#\ 4e\	.	4aa\ 4cc#\ 4e\	f	4A\	.	4G/	4C#\	.	4cc#/ 4e/	.	4c#\	.	4e/ 4A/	.	4aa\	4a\	.	4ccc#\	.	4aaa\	.
4r	.	4r	.	4r	.	4r	.	2r	.	4r	2ryy	.	4r	.	4r	.	8r	.	4r	2r	.	4r	.	4r	.
.	.	.	.	.	.	.	.	.	.	.	.	.	.	.	.	.	8g\L 8e\	.	.	.	.	.	.	.	.
4r	.	4r	.	4r	.	4r	.	.	.	4r	.	.	4r	.	4r	.	8f#\ 8d\	.	8r	.	.	4r	.	8r	.
.	.	.	.	.	.	.	.	.	.	.	.	.	.	.	.	.	8e\J 8A\	.	8a/	.	.	.	.	8aa\	.
!	!	!	!	!	!	!	!	!	!	!	!	!	!	!	!	!	!	!	!	!	!	!	!	!LO:TX:a:t=[segno]	!
*	*	*	*	*	*	*	*	*	*	*	*	*	*	*	*	*	*	*	*v	*v	*	*	*	*	*
*	*	*	*	*	*	*	*	*	*	*v	*v	*	*	*	*	*	*	*	*	*	*	*	*	*
=29||	=29||	=29||	=29||	=29||	=29||	=29||	=29||	=29||	=29||	=29||	=29||	=29||	=29||	=29||	=29||	=29||	=29||	=29||	=29||	=29||	=29||	=29||	=29||
*>C	*	*	*	*	*	*	*	*	*	*	*	*	*	*	*	*	*	*	*	*	*	*	*
*k[cnf#]	*	*k[cnf#]	*	*k[cnf#]	*	*k[cnf#]	*	*k[cnf#]	*	*k[cnf#]	*	*k[cnf#]	*	*k[cnf#]	*	*k[cnf#]	*	*k[cnf#]	*	*k[cnf#]	*	*k[cnf#]	*
*M3/4	*	*M3/4	*	*M3/4	*	*M3/4	*	*M3/4	*	*M3/4	*	*M3/4	*	*M3/4	*	*M3/4	*	*M3/4	*	*M3/4	*	*M3/4	*
*	*	*	*	*	*	*	*	*	*	*^	*	*	*	*	*	*	*	*	*	*	*	*	*
.	.	.	.	.	.	.	.	.	.	32qqG/LLL	.	.	.	.	.	.	.	.	.	.	.	.	.	.
!	!	!	!	!	!	!	!	!	!	!	!	!	!	!	!	!	!	!	!	!	!	!	!LO:TX:t=P:problem:w źródle w całym pionie metrum jest za kluczem	!
!	!	!	!	!	!	!	!	!	!	!LO:TX:t=P:problem:brak znaków przykluczowych	!	!	!	!	!	!	!LO:TX:t=P:problem:w źródle brak znaków przykluczowych	!	!	!	!	!	!LO:TX:a:i:t=Trio.	!
.	.	.	.	.	.	.	.	.	.	32qqG/JJJ	.	.	.	.	.	.	.	.	.	.	.	.	.	.
*	*	*	*	*	*	*	*	*	*	*	*	*	*^	*	*	*	*	*	*	*	*	*	*	*
8G\	.	8g\ 8B\ 8D\	f	8gg\ 8b\ 8d\	.	8gg\ 8b\ 8d\	f	8G\	.	8G/	8C\	.	8g/	8g\	.	8B\	.	8g\ 8d\	f	8r	.	8r	.	8r	.
8r	.	8r	.	8r	.	8r	.	8r	.	8r	8ryy	.	8r	8ryy	.	8r	.	8r	.	16dd\LL 16b'\	.	16bb'\LL	.	16ddd'\LL	f
.	.	.	.	.	.	.	.	.	.	.	.	.	.	.	.	.	.	.	.	16dd\JJ 16b'\	.	16bb'\JJ	.	16ddd'\JJ	.
4r	.	4r	.	4r	.	4r	.	4r	.	4r	4ryy	.	4r	4ryy	.	4r	.	4r	.	(16ee\LL 16cc\	.	(16ccc\LL	.	(16eee\LL	.
.	.	.	.	.	.	.	.	.	.	.	.	.	.	.	.	.	.	.	.	16dd\ 16b\	.	16bb\	.	16ddd\	.
.	.	.	.	.	.	.	.	.	.	.	.	.	.	.	.	.	.	.	.	16cc\ 16a\	.	16aa\	.	16ccc\	.
.	.	.	.	.	.	.	.	.	.	.	.	.	.	.	.	.	.	.	.	16a\JJ 16f#\	.	16ff#\JJ	.	16aa\JJ	.
8r	.	8r	.	8r	.	8r	.	8r	.	8r	8ryy	.	8r	8ryy	.	8r	.	8r	.	8b\ 8g\)	.	8gg\)	.	8gg\)	.
*	*	*	*	*	*	*	*	*	*	*Xtremolo	*	*	*	*	*	*	*	*	*	*	*	*	*	*	*
8D\	.	8f#\ 8A\	.	8cc/ 8d/	.	8ff#\ 8a\ 8d\	.	8D\	.	32G/LLL	8C\	.	8a/ 8f#/	8ryy	.	8c\	.	8f#\ 8d\	.	8r	.	8r	.	8r	.
.	.	.	.	.	.	.	.	.	.	32G/	.	.	.	.	.	.	.	.	.	.	.	.	.	.	.
.	.	.	.	.	.	.	.	.	.	32G/	.	.	.	.	.	.	.	.	.	.	.	.	.	.	.
.	.	.	.	.	.	.	.	.	.	32G/JJJ	.	.	.	.	.	.	.	.	.	.	.	.	.	.	.
*	*	*	*	*	*	*	*	*	*	*	*	*	*v	*v	*	*	*	*	*	*	*	*	*	*	*
=30	=30	=30	=30	=30	=30	=30	=30	=30	=30	=30	=30	=30	=30	=30	=30	=30	=30	=30	=30	=30	=30	=30	=30	=30
*	*	*	*	*	*	*	*	*	*	*	*	*	*	*	*	*	*^	*	*	*	*	*	*	*
8G\	.	8g\ 8B\	.	8b/ 8d/	.	8gg\ 8b\ 8d\	.	8G\	.	8G/	8C\	.	8g/	.	8B\	.	8g/	8d\	.	8r	.	8r	.	8r	.
8r	.	8r	.	8r	.	8r	.	8r	.	8r	8ryy	.	8r	.	8r	.	8r	8ryy	.	16b\LL 16g'\	.	16gg'\LL	.	16ddd'\LL	.
.	.	.	.	.	.	.	.	.	.	.	.	.	.	.	.	.	.	.	.	16b\JJ 16g'\	.	16gg'\JJ	.	16ddd'\JJ	.
4r	.	4r	.	4r	.	4r	.	4r	.	4r	4ryy	.	4r	.	4r	.	4r	4ryy	.	(16cc\LL 16a\	.	(16aa\LL	.	(16ccc\LL	.
.	.	.	.	.	.	.	.	.	.	.	.	.	.	.	.	.	.	.	.	16b\ 16g\	.	16gg\	.	16bb\	.
.	.	.	.	.	.	.	.	.	.	.	.	.	.	.	.	.	.	.	.	16a\ 16f#\	.	16ff#\	.	16aa\	.
.	.	.	.	.	.	.	.	.	.	.	.	.	.	.	.	.	.	.	.	16f#\JJ 16d#X\	.	16dd#X\JJ	.	16ff#\JJ	.
8r	.	8r	.	8r	.	8r	.	8r	.	8r	8ryy	.	8r	.	8r	.	8r	8ryy	.	8g\ 8e\)	.	8ee\)	.	8ee\)	.
8BB/	.	8f#\ 8B\	.	8a/ 8B/	.	8dd#X/ 8f#/	.	8BB/	.	32G/LLL	8C\	.	8dd#X/ 8f#/	.	8A\	.	8f#/ 8d#X/	8B\	.	8r	.	8r	.	8r	.
.	.	.	.	.	.	.	.	.	.	32G/	.	.	.	.	.	.	.	.	.	.	.	.	.	.	.
.	.	.	.	.	.	.	.	.	.	32G/	.	.	.	.	.	.	.	.	.	.	.	.	.	.	.
.	.	.	.	.	.	.	.	.	.	32G/JJJ	.	.	.	.	.	.	.	.	.	.	.	.	.	.	.
=31	=31	=31	=31	=31	=31	=31	=31	=31	=31	=31	=31	=31	=31	=31	=31	=31	=31	=31	=31	=31	=31	=31	=31	=31	=31
*	*	*	*	*	*	*^	*	*	*	*	*	*	*	*	*	*	*	*	*	*	*	*	*	*	*
*2\right	*	*	*	*	*	*	*	*	*	*	*	*	*	*	*	*	*	*	*	*	*	*	*	*	*	*
*tremolo	*	*	*	*	*	*	*	*	*	*	*	*	*	*	*	*	*	*	*	*	*	*	*	*	*	*
8E\L	.	8g\L 8B\	.	8g/L 8B/	.	4ee/	8g\	.	[2E\	.	4G/	4C\	.	4ee/ 4g/	.	[2G\	.	2.e/	[2B\	.	2.r	.	2.r	.	2.r	.
8E\	.	8e\J	.	8g/J 8B/	.	.	16ee'>\LL	.	.	.	.	.	.	.	.	.	.	.	.	.	.	.	.	.	.	.
.	.	.	.	.	.	.	16ff#'>\JJ	.	.	.	.	.	.	.	.	.	.	.	.	.	.	.	.	.	.	.
8E\	.	8e\L	.	8g/L 8B/	.	2ryy	(16gg\LL	.	.	.	4r	2ryy	.	4r	.	.	.	.	.	.	.	.	.	.	.	.
.	.	.	.	.	.	.	16ff#\)	.	.	.	.	.	.	.	.	.	.	.	.	.	.	.	.	.	.	.
8E\J	.	8e\J	.	8g/J 8B/	.	.	16ee'\	.	.	.	.	.	.	.	.	.	.	.	.	.	.	.	.	.	.	.
.	.	.	.	.	.	.	16ff#'\JJ	.	.	.	.	.	.	.	.	.	.	.	.	.	.	.	.	.	.	.
8E\L	.	8e\L	.	8g/L 8B/	.	.	(16gg\LL	.	8E\L]	.	4r	.	.	4r	.	8G\L]	.	.	8B\L]	.	.	.	.	.	.	.
.	.	.	.	.	.	.	16ff#\)	.	.	.	.	.	.	.	.	.	.	.	.	.	.	.	.	.	.	.
8C\J	.	8e\J	.	8g/J 8B/	.	.	16gg'\	.	8C\J	.	.	.	.	.	.	8A\J	.	.	8cnX\J	.	.	.	.	.	.	.
.	.	.	.	.	.	.	16aa'\JJ	.	.	.	.	.	.	.	.	.	.	.	.	.	.	.	.	.	.	.
*	*	*	*	*	*	*v	*v	*	*	*	*	*	*	*	*	*	*	*	*	*	*	*	*	*	*	*
!!LO:PB:g=original
=32	=32	=32	=32	=32	=32	=32	=32	=32	=32	=32	=32	=32	=32	=32	=32	=32	=32	=32	=32	=32	=32	=32	=32	=32	=32
*	*	*	*	*	*	*	*	*	*	*	*	*	*	*	*	*	*	*	*	*^	*	*	*	*	*
*	*	*tremolo	*	*tremolo	*	*	*	*	*	*	*	*	*	*	*	*	*	*	*	*	*2\right	*	*2\right	*	*	*
!	!	!	!	!	!	!	!	!	!	!	!	!	!	!	!	!	!	!	!LO:DY:rj	!	!	!	!	!	!	!
8D\L	<	16d\LL	.	16a/LL 16c/	.	(16cc#X\LL	<	2.D\	.	8G/L	4C\	.	8dd\L	.	2.A\	.	2.f#/	2.d\	f	16c#/LL	2.a\	.	2.cc\	f	(16cc#X\LL	.
.	.	16d\	.	16a/ 16c/	.	16dd\	.	.	.	.	.	.	.	.	.	.	.	.	.	16d/	.	.	.	.	16dd\	.
*	*	*	*	*	*	*	*	*	*	*tremolo	*	*	*	*	*	*	*	*	*	*	*	*	*	*	*	*
8D\	.	16d\	.	16a/ 16c/	.	16ee\	.	.	.	32F#/LL	.	.	16r	.	.	.	.	.	.	16e/	.	.	.	.	16ee\	.
.	.	.	.	.	.	.	.	.	.	32F#/	.	.	.	.	.	.	.	.	.	.	.	.	.	.	.	.
.	.	16d\	.	16a/ 16c/	.	16ff#\JJ	.	.	.	32F#/	.	.	32dd\LL	.	.	.	.	.	.	16f#/JJ	.	.	.	.	16ff#\JJ	.
.	.	.	.	.	.	.	.	.	.	32F#/JJJ	.	.	32dd\JJJ	.	.	.	.	.	.	.	.	.	.	.	.	.
*	*	*	*	*	*	*	*	*	*	*	*	*	*tremolo	*	*	*	*	*	*	*	*	*	*	*	*	*
*	*	*	*	*	*	*	*	*	*	*	*	*	*2\right	*	*	*	*	*	*	*	*	*	*	*	*	*
8D\	.	16d\	.	16a/ 16c/	.	16gg\LL	.	.	.	8G/L	4C\	.	8dd\L	.	.	.	.	.	.	16g/LL	.	.	.	.	16gg\LL	.
.	.	16d\	.	16a/ 16c/	.	16aa\	.	.	.	.	.	.	.	.	.	.	.	.	.	16a/	.	.	.	.	16aa\	.
8D\	.	16d\	.	16a/ 16c/	.	16bb\	.	.	.	8G/	.	.	8dd\	.	.	.	.	.	.	16b/	.	.	.	.	16bb\	.
.	.	16d\	.	16a/ 16c/	.	16ccc\JJ)	.	.	.	.	.	.	.	.	.	.	.	.	.	16ccX/JJ	.	.	.	.	16ccc\JJ)	.
8D\	.	16d\	.	16a/ 16c/	.	(16ccc#X\LL	.	.	.	8G/	4C\	.	8dd\	.	.	.	.	.	.	16dd/LL	.	.	.	.	(16ccc#X\LL	.
.	.	16d\	.	16a/ 16c/	.	16ddd\	[	.	.	.	.	.	.	.	.	.	.	.	.	16ee/	.	.	.	.	16ddd\	.
8D\J	[[	16d\	.	16a/ 16c/	.	16eee\	.	.	.	8G/J	.	.	8dd\J	.	.	.	.	.	.	16ff#/JJ	.	.	.	.	16eee\	.
.	.	16d\JJ	.	16a/JJ 16c/	.	16fff#\JJ	.	.	.	.	.	.	.	.	.	.	.	.	.	16r	.	.	.	.	16fff#\JJ	.
*	*	*Xtremolo	*	*Xtremolo	*	*	*	*	*	*Xtremolo	*	*	*Xtremolo	*	*	*	*	*	*	*	*	*	*	*	*	*
=33	=33	=33	=33	=33	=33	=33	=33	=33	=33	=33	=33	=33	=33	=33	=33	=33	=33	=33	=33	=33	=33	=33	=33	=33	=33	=33
8G\	.	8g\ 8G\	.	8g/ 8B/	.	8ggg\)	.	8G\	.	8G/	8C\	.	8g/	.	8B\L 8G\	.	8g/	8d\	.	8gg/	8g\	.	8b\	.	8ggg\)	.
8r	.	8r	.	8r	.	8r	.	8r	.	8r	8ryy	.	8r	.	8d\	.	8r	8ryy	.	8ryy	8r	.	8r	.	8r	.
4r	.	4r	.	4r	.	4r	.	4r	.	4r	2ryy	.	4.b/ 4.g/	.	8B\	.	4r	2ryy	.	2ryy	4.b\ 4.g\	.	4.gg\	.	4.bb\	.
.	.	.	.	.	.	.	.	.	.	.	.	.	.	.	8d\	.	.	.	.	.	.	.	.	.	.	.
4r	.	4r	.	4r	.	4r	.	4r	.	4r	.	.	.	.	8G\	.	4r	.	.	.	.	.	.	.	.	.
.	.	.	.	.	.	.	.	.	.	.	.	.	8dd\ 8b\	.	8d\J	.	.	.	.	.	8dd\ 8b\	.	8bb\	.	8ddd\	.
*	*	*	*	*	*	*	*	*	*	*	*	*	*	*	*	*	*v	*v	*	*	*	*	*	*	*	*
*	*	*	*	*	*	*	*	*	*	*v	*v	*	*	*	*	*	*	*	*v	*v	*	*	*	*	*
=34	=34	=34	=34	=34	=34	=34	=34	=34	=34	=34	=34	=34	=34	=34	=34	=34	=34	=34	=34	=34	=34	=34	=34
2.r	.	2.r	.	2.r	.	2.r	.	2.r	.	2.r	.	(16dd\LL 16b\	.	8D\L	.	2.r	.	16dd\LL 16b\	.	(16bb\LL	.	(16ddd\LL	.
.	.	.	.	.	.	.	.	.	.	.	.	16cc\ 16a\	.	.	.	.	.	16cc\ 16a\	.	16aa\	.	16ccc\	.
.	.	.	.	.	.	.	.	.	.	.	.	16b\ 16g\	.	8d\	.	.	.	16b\ 16g#\	.	16gg#X\	.	16bb\	.
.	.	.	.	.	.	.	.	.	.	.	.	16cc\JJ 16a\	.	.	.	.	.	16cc\JJ 16a\	.	16aa\JJ)	.	16ccc\JJ)	.
.	.	.	.	.	.	.	.	.	.	.	.	4.a/ 4.f#/)	.	8A\	.	.	.	4.a\ 4.f#\	.	4.ff#\	.	4.aa\	.
.	.	.	.	.	.	.	.	.	.	.	.	.	.	8d\	.	.	.	.	.	.	.	.	.
.	.	.	.	.	.	.	.	.	.	.	.	.	.	8D\	.	.	.	.	.	.	.	.	.
.	.	.	.	.	.	.	.	.	.	.	.	8b/ 8g/	.	8D\J	.	.	.	8b\ 8gX\	.	8ggn\	.	8bb\	.
=35	=35	=35	=35	=35	=35	=35	=35	=35	=35	=35	=35	=35	=35	=35	=35	=35	=35	=35	=35	=35	=35	=35	=35
.	.	.	.	.	.	.	.	.	.	32qqG/LLL	.	.	.	.	.	.	.	.	.	.	.	.	.
.	.	.	.	.	.	.	.	.	.	32qqG/JJJ	.	.	.	.	.	.	.	.	.	.	.	.	.
*	*	*	*	*	*	*	*	*	*	*^	*	*	*	*	*	*	*	*	*	*	*	*	*
*	*	*	*	*	*	*	*	*	*	*	*	*	*	*	*rep	*	*	*	*	*	*	*	*	*
8D\	sf	8f#/ 8A/ 8D/	.	8ff#/ 8a/ 8d/	sf	8aa\ 8cc\ 8d\	sf	8D\	.	8G/	8C\	.	8cc\ 8a\	sf	8D\L	.	8f#\ 8d\	sf	8cc\ 8a\	.	8aa\	.	8ccc\	.
8r	.	8r	.	8r	.	8r	.	8r	.	8r	8ryy	.	8r	.	8d\	.	8r	.	8r	.	8r	.	8r	.
4r	.	4r	.	4r	.	4r	.	2r	.	4r	4ryy	.	4.cc\ 4.a\	.	8A\	.	4r	.	4.cc\ 4.a\	.	4.aa\	.	4.ccc\	.
.	.	.	.	.	.	.	.	.	.	.	.	.	.	.	8d\	.	.	.	.	.	.	.	.	.
4r	.	4r	.	4r	.	4r	.	.	.	4r	4ryy	.	.	.	8D\	.	4r	.	.	.	.	.	.	.
.	.	.	.	.	.	.	.	.	.	.	.	.	8ee\ 8cc\	.	8D\J	.	.	.	8ee\ 8cc\	.	8ccc\	.	8eee\	.
*	*	*	*	*	*	*	*	*	*	*	*	*	*	*	*Xrep	*	*	*	*	*	*	*	*	*
*	*	*	*	*	*	*	*	*	*	*v	*v	*	*	*	*	*	*	*	*	*	*	*	*	*
!!LO:PB:g=original
=36	=36	=36	=36	=36	=36	=36	=36	=36	=36	=36	=36	=36	=36	=36	=36	=36	=36	=36	=36	=36	=36	=36	=36
2.r	.	2.r	.	2.r	.	2.r	.	2.r	.	2.r	.	16ee\LL 16cc\	.	8G\L	.	2.r	.	(16ee\LL 16cc\	.	(16ccc\LL	.	(16eee\LL	.
.	.	.	.	.	.	.	.	.	.	.	.	16dd\ 16b\	.	.	.	.	.	16dd\ 16b\	.	16bb\	.	16ddd\	.
.	.	.	.	.	.	.	.	.	.	.	.	16cc#X\ 16a\	.	8d\	.	.	.	16cc#\ 16a#X\	.	16aa#X\	.	16ccc#X\	.
.	.	.	.	.	.	.	.	.	.	.	.	16dd\JJ 16b\	.	.	.	.	.	16dd\JJ 16b\)	.	16bb\JJ)	.	16ddd\JJ)	.
.	.	.	.	.	.	.	.	.	.	.	.	4.b/ 4.g/	.	8B\	.	.	.	4.b\ 4.g\	.	4.gg\	.	4.bb\	.
.	.	.	.	.	.	.	.	.	.	.	.	.	.	8d\	.	.	.	.	.	.	.	.	.
.	.	.	.	.	.	.	.	.	.	.	.	.	.	8G\	.	.	.	.	.	.	.	.	.
!	!	!	!	!	!	!	!	!	!	!	!	!LO:SIC:v:s=8cn	!	!	!	!	!	!	!	!	!	!	!
.	.	.	.	.	.	.	.	.	.	.	.	8cc#/ 8a/	.	8d\J	.	.	.	8ccX\ 8a\	.	8aan\	.	8cccn\	.
=37	=37	=37	=37	=37	=37	=37	=37	=37	=37	=37	=37	=37	=37	=37	=37	=37	=37	=37	=37	=37	=37	=37	=37
*	*	*	*	*	*	*	*	*	*	*	*	*^	*	*	*	*^	*	*^	*	*	*	*	*
!	!	!	!	!	!	!	!	!	!	!	!	!	!	!	!	!	!	!	!	!	!	!	!	!	!LO:TX:a:t=col v°.I° 8va	!
8BB/	.	8r	.	8r	.	(16cc#X\LL	.	2.BB/	.	2.r	.	(<16c#X/LL	2.r	.	8BB\L	.	2.d/	2.d\	.	2.r	2.g\	.	2.r	.	(16ccc#X\LLyy	.
.	.	.	.	.	.	16dd\	.	.	.	.	.	16d/	.	.	.	.	.	.	.	.	.	.	.	.	16ddd\yy	.
8r	.	8d\ 8B\	.	8g/ 8G/	.	16ee\	.	.	.	.	.	16e/	.	.	8G\	.	.	.	.	.	.	.	.	.	16eee\yy	.
.	.	.	.	.	.	16dd\JJ	.	.	.	.	.	16d/JJ)	.	.	.	.	.	.	.	.	.	.	.	.	16ddd\JJyy	.
*	*	*rep	*	*rep	*	*	*	*	*	*	*	*	*	*	*	*	*	*	*	*	*	*	*	*	*	*
8BB/	.	8r	.	8r	.	8gg\)	.	.	.	.	.	8g/	.	.	8D\	.	.	.	.	.	.	.	.	.	8ggg\)yy	.
8r	.	8d\ 8B\	.	8g/ 8G/	.	4dd\	.	.	.	.	.	4d/|	.	.	8G\	.	.	.	.	.	.	.	.	.	4ddd\yy	.
*	*	*Xrep	*	*Xrep	*	*	*	*	*	*	*	*	*	*	*	*	*	*	*	*	*	*	*	*	*	*
*	*	*rep	*	*rep	*	*	*	*	*	*	*	*	*	*	*	*	*	*	*	*	*	*	*	*	*	*
8BB/	.	8r	.	8r	.	.	.	.	.	.	.	.	.	.	8BB\	.	.	.	.	.	.	.	.	.	.	.
8r	.	8d\ 8B\	.	8g/ 8G/	.	(16gg\LL	.	.	.	.	.	(16g/LL	.	.	8G\J	.	.	.	.	.	.	.	.	.	(16ggg\LLyy	.
.	.	.	.	.	.	16ff#\JJ)	.	.	.	.	.	16f#/JJ)	.	.	.	.	.	.	.	.	.	.	.	.	16fff#\JJ)yy	.
*	*	*Xrep	*	*Xrep	*	*	*	*	*	*	*	*	*	*	*	*	*	*	*	*	*	*	*	*	*	*
*	*	*	*	*	*	*	*	*	*	*	*	*v	*v	*	*	*	*	*	*	*	*	*	*	*	*	*
=38	=38	=38	=38	=38	=38	=38	=38	=38	=38	=38	=38	=38	=38	=38	=38	=38	=38	=38	=38	=38	=38	=38	=38	=38	=38
8C/	.	8r	.	8r	.	(16dd#X\LL	.	2.C/	.	2.r	.	(16d#X/LL	.	8C\L	.	2e/	2cX\	.	2.r	2.a\	.	2.r	.	(16ddd#X\LLyy	.
.	.	.	.	.	.	16ee\	.	.	.	.	.	16e/	.	.	.	.	.	.	.	.	.	.	.	16eee\yy	.
8r	.	8e\ 8c\	.	8a/ 8c/	.	16ff#\	.	.	.	.	.	16f#/	.	8A\	.	.	.	.	.	.	.	.	.	16fff#\yy	.
.	.	.	.	.	.	16ee\JJ	.	.	.	.	.	16e/JJ)	.	.	.	.	.	.	.	.	.	.	.	16eee\JJyy	.
*	*	*rep	*	*rep	*	*	*	*	*	*	*	*	*	*	*	*	*	*	*	*	*	*	*	*	*
8C/	.	8r	.	8r	.	4.aa\)	.	.	.	.	.	4.a/	.	8E\	.	.	.	.	.	.	.	.	.	4.aaa\)yy	.
8r	.	8e\ 8c\	.	8a/ 8c/	.	.	.	.	.	.	.	.	.	8A\	.	.	.	.	.	.	.	.	.	.	.
*	*	*Xrep	*	*Xrep	*	*	*	*	*	*	*	*	*	*	*	*	*	*	*	*	*	*	*	*	*
*	*	*	*	*rep	*	*	*	*	*	*	*	*	*	*	*	*	*	*	*	*	*	*	*	*	*
8C/	.	8r	.	8r	.	.	.	.	.	.	.	.	.	8C\	.	4e-X/	4c\	.	.	.	.	.	.	.	.
8r	.	8e-X\ 8c\	.	8a/ 8c/	.	8ee-X\	.	.	.	.	.	8e-X/	.	8A\J	.	.	.	.	.	.	.	.	.	8eee-X\yy	.
*	*	*	*	*Xrep	*	*	*	*	*	*	*	*	*	*	*	*	*	*	*	*	*	*	*	*	*
*	*	*	*	*	*	*	*	*	*	*	*	*	*	*	*	*v	*v	*	*	*	*	*	*	*	*
!!LO:PB:g=original
=39	=39	=39	=39	=39	=39	=39	=39	=39	=39	=39	=39	=39	=39	=39	=39	=39	=39	=39	=39	=39	=39	=39	=39	=39
.	.	.	.	.	.	.	.	.	.	32qqG/LLL	.	.	.	.	.	.	.	.	.	.	.	.	.	.
.	.	.	.	.	.	.	.	.	.	32qqG/JJJ	.	.	.	.	.	.	.	.	.	.	.	.	.	.
*	*	*	*	*^	*	*	*	*	*	*^	*	*	*	*	*	*	*	*	*	*	*	*	*	*
8D\	.	8d\	.	8b/	8g\	.	8dd\	.	8D\	.	8G/	8C\	.	8r	.	8D\	.	8g\ 8d\	.	8r	8b\	.	8r|	.	8ddd\	.
8r	.	8r	.	8r	8ryy	.	8r	.	8r	.	8r	8ryy	.	(16dd\LL 16b\	.	8r	.	8r	.	(16bb/LL	8r	.	(16ddd\LL	.	(16ddd\LL	.
.	.	.	.	.	.	.	.	.	.	.	.	.	.	16cc\JJ 16a\)	.	.	.	.	.	16aa/JJ)	.	.	16ccc\JJ)	.	16ccc\JJ)	.
4r	.	4r	.	4r	2ryy	.	4r	.	2r	.	4r	4ryy	.	16b/LL 16g'/	.	2r	.	4r	.	16gg'</LL	4r	.	16bb'\LL	.	16bb'\LL	.
.	.	.	.	.	.	.	.	.	.	.	.	.	.	16a/ 16f#'/	.	.	.	.	.	16ff#'</	.	.	16aa'\	.	16aa'\	.
.	.	.	.	.	.	.	.	.	.	.	.	.	.	16g/ 16e'/	.	.	.	.	.	16ee'</	.	.	16gg'\	.	16gg'\	.
.	.	.	.	.	.	.	.	.	.	.	.	.	.	16f#/JJ 16d'/	.	.	.	.	.	16dd'</JJ	.	.	16ff#'\JJ	.	16ff#'\JJ	.
4r	.	4r	.	4r	.	.	4r	.	.	.	4r	4ryy	.	16e/LL 16c'/	.	.	.	4r	.	16cc'</LL	4r	.	16ee'\LL	.	16ee'\LL	.
.	.	.	.	.	.	.	.	.	.	.	.	.	.	16d/ 16B'/	.	.	.	.	.	16b'</	.	.	16dd'\	.	16dd'\	.
.	.	.	.	.	.	.	.	.	.	.	.	.	.	16c/ 16A'/	.	.	.	.	.	16a'</	.	.	16cc'\	.	16cc'\	.
.	.	.	.	.	.	.	.	.	.	.	.	.	.	16B/JJ 16G'/	.	.	.	.	.	16g'</JJ	.	.	16b'\JJ	.	16b'\JJ	.
*	*	*	*	*v	*v	*	*	*	*	*	*v	*v	*	*	*	*	*	*	*	*v	*v	*	*	*	*	*
=40	=40	=40	=40	=40	=40	=40	=40	=40	=40	=40	=40	=40	=40	=40	=40	=40	=40	=40	=40	=40	=40	=40	=40
8D\	.	8A/	.	8d/ 8c/	.	8f#/	.	2.r	.	2.r	.	2.r	.	2.r	.	2.r	.	(16ee\LL 16cc\	.	(16ccc\LL	.	(16eee\LL	.
.	.	.	.	.	.	.	.	.	.	.	.	.	.	.	.	.	.	16dd\ 16b\	.	16bb\	.	16ddd\	.
8r	.	8r	.	8r	.	8r	.	.	.	.	.	.	.	.	.	.	.	16cc\ 16a\)	.	16aa\)	.	16ccc\)	.
.	.	.	.	.	.	.	.	.	.	.	.	.	.	.	.	.	.	32r	.	32r	.	32r	.
.	.	.	.	.	.	.	.	.	.	.	.	.	.	.	.	.	.	32a\JJk 32f#\|	.	32ff#\JJk|	.	32aa\JJk|	.
(4D\	.	(4A/	.	(4d/ (4c/	.	(4f#/	.	.	.	.	.	.	.	.	.	.	.	(4a\ 4f#\	.	(4ff#\	.	(4aa\	.
8G\)	.	8G/)	.	8d/ 8B/))	.	8g/)	.	.	.	.	.	.	.	.	.	.	.	8g\)	.	8gg\)	.	8gg\)	.
8r	.	8r	.	8r	.	8r	.	.	.	.	.	.	.	.	.	.	.	8r	.	8r	.	8r	.
=41:|!	=41:|!	=41:|!	=41:|!	=41:|!	=41:|!	=41:|!	=41:|!	=41:|!	=41:|!	=41:|!	=41:|!	=41:|!	=41:|!	=41:|!	=41:|!	=41:|!	=41:|!	=41:|!	=41:|!	=41:|!	=41:|!	=41:|!	=41:|!
*>D	*	*	*	*	*	*	*	*	*	*	*	*	*	*	*	*	*	*	*	*	*	*	*
.	.	.	.	.	.	.	.	.	.	32qqG/LLL	f	.	.	.	.	.	.	.	.	.	.	.	.
.	.	.	.	.	.	.	.	.	.	32qqG/JJJ	.	.	.	.	.	.	.	.	.	.	.	.	.
*^	*	*	*	*	*	*	*	*	*	*^	*	*	*	*	*	*	*	*	*	*	*	*	*
8BB'/L	2rCCyy	.	8B\L	f|	8b\L	.	8b\L	f	8BB/	.	8G/	8C\	.	8b/ 8d#X/	.	8B\	f	8f#/ 8F#/	.	8dd#X\ 8b\	f	8ff#\	.	8bb\	f
(32F#/LL	.	.	(32f#\LL	.	(32ff#\LL	.	(32ff#\LL	.	8r	.	8r	8ryy	.	8r	.	8r	.	8r	.	8r	.	8r	.	8r	.
32E/	.	.	32e\	.	32ee\	.	32ee\	.	.	.	.	.	.	.	.	.	.	.	.	.	.	.	.	.	.
32D#X/	.	.	32d#X\	.	32dd#X\	.	32dd#X\	.	.	.	.	.	.	.	.	.	.	.	.	.	.	.	.	.	.
32C#X/JJJ	.	.	32c#X\JJJ	.	32cc#X\JJJ	.	32cc#X\JJJ	.	.	.	.	.	.	.	.	.	.	.	.	.	.	.	.	.	.
8BB/)	.	.	8B/)	.	8b\)	.	8b\)	.	2r	.	4r	4ryy	.	4r	.	8r	.	4r	.	8r	.	8r	.	8r	.
8r	.	.	8r	.	8r	.	8r	.	.	.	.	.	.	.	.	(32f#\LLL	.	.	.	(32ff#\LLL	.	(32ff#\LLL	.	(32fff#\LLL	.
.	.	.	.	.	.	.	.	.	.	.	.	.	.	.	.	32e\	.	.	.	32ee\	.	32ee\	.	32eee\	.
.	.	.	.	.	.	.	.	.	.	.	.	.	.	.	.	32d#X\	.	.	.	32dd#X\	.	32dd#X\	.	32ddd#X\	.
.	.	.	.	.	.	.	.	.	.	.	.	.	.	.	.	32c#X\JJJ	.	.	.	32cc\JJJ	.	32cc#X\JJJ	.	32ccc#X\JJJ	.
8r	4r	.	8r	.	8r	.	8r	.	.	.	4r	4ryy	.	4r	.	8B\)	.	4r	.	8b\)	.	8b\)	.	8bb\)	.
8a'/	.	.	8a\	.	8b\	.	8dd#X\	.	.	.	.	.	.	.	.	8r	.	.	.	8r	.	8r	.	8r	.
*	*	*	*	*	*	*	*	*	*	*	*v	*v	*	*	*	*	*	*	*	*	*	*	*	*	*
!!LO:PB:g=original
=42	=42	=42	=42	=42	=42	=42	=42	=42	=42	=42	=42	=42	=42	=42	=42	=42	=42	=42	=42	=42	=42	=42	=42	=42
*	*	*	*	*	*	*	*	*	*	*	*	*	*	*	*	*	*^	*	*	*	*	*	*	*
(16e/LL	2.r	.	(16g\LL	.	8b'/L	.	(16ee\LL	.	2.r	.	2.r	.	2.r	.	4r	.	4r	4ryy	.	4r	.	4r	.	4r	.
16f#/	.	.	16f#\	.	.	.	16dd#X\	.	.	.	.	.	.	.	.	.	.	.	.	.	.	.	.	.	.
16e/	.	.	16g\	.	8b'/J	.	16ee\	.	.	.	.	.	.	.	.	.	.	.	.	.	.	.	.	.	.
16d#X/JJ)	.	.	16d#X\JJ	.	.	.	16ff#\JJ	.	.	.	.	.	.	.	.	.	.	.	.	.	.	.	.	.	.
16e/	.	.	16e\)	.	16b'/	.	16gg\)	.	.	.	.	.	.	.	8r	.	8r	8ryy	.	8r	.	16r	.	16r	.
16r	.	.	16r	.	16r	.	16r	.	.	.	.	.	.	.	.	.	.	.	.	.	.	(16dd#X\LL	.	(16ddd#X\LL	.
8r	.	.	8r	.	8r	.	8r	.	.	.	.	.	.	.	(8BB/L	.	8f#/L	4B\	.	(8a/ 8d#X'/	.	16ee\	.	16eee\	.
.	.	.	.	.	.	.	.	.	.	.	.	.	.	.	.	.	.	.	.	.	.	16ff#\JJ	.	16fff#\JJ	.
4r	.	.	4r	.	4r	.	4r	.	.	.	.	.	.	.	8E/J)	.	8e/J	.	.	8g/ 8e/)	.	8gg\)	.	8ggg\)	.
.	.	f|	.	.	.	.	.	.	.	.	.	.	.	f	8r	.	8r	8ryy	.	8r	.	8r	.	8r	.
*v	*v	*	*	*	*	*	*	*	*	*	*	*	*	*	*	*	*v	*v	*	*	*	*	*	*	*
=43	=43	=43	=43	=43	=43	=43	=43	=43	=43	=43	=43	=43	=43	=43	=43	=43	=43	=43	=43	=43	=43	=43	=43
.	.	.	.	.	.	.	.	.	.	32qqG/LLL	.	.	.	.	.	.	.	.	.	.	.	.	.
.	.	.	.	.	.	.	.	.	.	32qqG/JJJ	.	.	.	.	.	.	.	.	.	.	.	.	.
*	*	*	*	*	*	*	*	*	*	*^	*	*	*	*	*	*	*	*	*	*	*	*	*
!	!	!	!	!	!	!	!	!	!	!	!	!	!	!	!	!	!	!	!	!LO:DY:rj	!	!	!	!
8AA/	.	8a\L 8e\ 8A\	f	8aa\ 8cc#X\ 8e\	.	8aa\ 8cc#X\ 8e\|	.	8AA/	.	8G/	8C\	.	8a/ 8c#X/	.	4r	.	8e/ 8A/	f	4r	.	4r	.	4r	.
(32E/LLL	.	(32e\LL	.	(32ee\LLL	.	(32ee\LLL	.	8r	.	8r	8ryy	.	8r	.	.	.	8r	.	.	.	.	.	.	.
32D/	.	32d\	.	32dd\	.	32dd\	.	.	.	.	.	.	.	.	.	.	.	.	.	.	.	.	.	.
32C#X/	.	32c#X\	.	32cc#\	.	32cc#\	.	.	.	.	.	.	.	.	.	.	.	.	.	.	.	.	.	.
32BB/JJJ	.	32B\JJJ	.	32b\JJJ	.	32b\JJJ	.	.	.	.	.	.	.	.	.	.	.	.	.	.	.	.	.	.
8AA/)	.	8A/)	.	8a/)	.	8a/)	.	2r	.	4r	4ryy	.	4r	.	8r	.	4r	.	8r	.	8r	.	8r	.
8r	.	8r	.	8r	.	8r	.	.	.	.	.	.	.	.	(32e\LLL	.	.	.	(32ee\LLL	.	(32ee\LLL	.	(32eee\LLL	.
.	.	.	.	.	.	.	.	.	.	.	.	.	.	.	32d\	.	.	.	32dd\	.	32dd\	.	32ddd\	.
.	.	.	.	.	.	.	.	.	.	.	.	.	.	.	32c#X\	.	.	.	32cc#\	.	32cc#X\	.	32ccc#X\	.
.	.	.	.	.	.	.	.	.	.	.	.	.	.	.	32B\JJJ)	.	.	.	32b\JJJ	.	32b\JJJ	.	32bb\JJJ	.
8r	.	8r	.	8r	.	8r	.	.	.	4r	4ryy	.	4r	.	8A\	.	4r	.	8a\)	.	8a\)	.	8aa\)	.
8g/	.	8g\|	.	8a'/	.	8cc#'\	.	.	.	.	.	.	.	.	8r	.	.	.	8r	.	8r	.	8r	.
*	*	*	*	*	*	*	*	*	*	*v	*v	*	*	*	*	*	*	*	*	*	*	*	*	*
=44	=44	=44	=44	=44	=44	=44	=44	=44	=44	=44	=44	=44	=44	=44	=44	=44	=44	=44	=44	=44	=44	=44	=44
*^	*	*	*	*	*	*	*	*	*	*	*	*^	*	*	*	*^	*	*^	*	*	*	*	*
(16f#/LL	2.r	.	(16f#\LL	.	8a'/L	.	(16dd\LL	.	2.r	.	2.r	.	4r	2ryy	.	4r	.	4r	4ryy	.	4r	4ryy	.	4r	.	4r	.
16e/	.	.	16e\	.	.	.	16cc#X\	.	.	.	.	.	.	.	.	.	.	.	.	.	.	.	.	.	.	.	.
16f#/	.	.	16f#\	.	8a'/J	.	16dd\	.	.	.	.	.	.	.	.	.	.	.	.	.	.	.	.	.	.	.	.
16c#X/JJ	.	.	16c#X\JJ)	.	.	.	16ee\JJ)	.	.	.	.	.	.	.	.	.	.	.	.	.	.	.	.	.	.	.	.
16d/)	.	.	16d\	.	16a'/	.	16ff#\	.	.	.	.	.	4r	.	.	8r	.	8r	8ryy	.	8r	8ryy	.	16r	.	16r	.
16r	.	.	16r	.	16r	.	16r	.	.	.	.	.	.	.	.	.	.	.	.	.	.	.	.	(16cc#X\LL	.	(16ccc#X\LL	.
!	!	!	!	!	!	!	!	!	!	!	!	!	!	!	!	!	!	!	!	!	!LO:SIC:v:s=8c#	!	!	!	!	!	!
8r	.	.	8r	.	8r	.	8r	.	.	.	.	.	.	.	.	8AA/L	.	(8e/L 8A/	4A\	.	(8g/L (8c/	8ryy	.	16dd\	.	16ddd\	.
.	.	.	.	.	.	.	.	.	.	.	.	.	.	.	.	.	.	.	.	.	.	.	.	16ee\JJ	.	16eee\JJ	.
4r	.	.	4r	.	4r	.	4r	.	.	.	.	.	8.r	8.ryy	.	8D/J	.	8d/J)	.	.	8f#/)J 8d/)	8ryy	.	8ff#\)	.	8fff#\)	.
.	.	.	.	.	.	.	.	.	.	.	.	.	.	.	.	8r	.	8r	8ryy	.	16r	8r	.	16r	.	8r	.
.	.	.	.	.	.	.	.	.	.	.	.	.	16d/|	16d\	.	.	.	.	.	.	16dd'/	.	.	16dd\|	.	.	.
*v	*v	*	*	*	*	*	*	*	*	*	*	*	*v	*v	*	*	*	*v	*v	*	*	*	*	*	*	*	*
!!LO:PB:g=original
=45	=45	=45	=45	=45	=45	=45	=45	=45	=45	=45	=45	=45	=45	=45	=45	=45	=45	=45	=45	=45	=45	=45	=45	=45
!	!	!	!	!	!	!	!	!	!	!	!	!	!	!	!	!	!	!	!	!	!	!	!LO:TX:t=P:problem:brak partii oboju	!
!	!	!	!	!	!	!	!	!	!	!	!	!	!	!	!	!	!	!	!	!	!	!	!LO:TX:a:t=col Oboe	!
8AA/	.	8r	.	8r	.	4r	.	8AA/	.	2.r	.	(16b/LL 16g/	.	4r	.	8r	.	(16gg/LL	8r	.	(16bb\LL	.	2.ryy	.
.	.	.	.	.	.	.	.	.	.	.	.	16a/ 16f#/)	.	.	.	.	.	16ff#/)	.	.	16aa\)	.	.	.
8r	.	8e\ 8c#X\	.	8g/ 8A/	.	.	.	8r	.	.	.	(16a/ 16f#/	.	.	.	8g/ 8A/	.	(16ff#/	8e\	.	(16aa\	.	.	.
.	.	.	.	.	.	.	.	.	.	.	.	16g/JJ 16e/)	.	.	.	.	.	16ee/JJ)	.	.	16gg\JJ)	.	.	.
*	*	*rep	*	*rep	*	*	*	*rep	*	*	*	*	*	*	*	*rep	*	*	*rep	*	*	*	*	*
8A\	.	8r	.	8r	.	8r	.	8AA/	.	.	.	4.e/ 4.c#X/	.	8r	.	8r	.	4.cc#/	8r	.	4.ee\	.	.	.
8r	.	8e\ 8c#\	.	8g/ 8A/	.	16a'/LL	.	8r	.	.	.	.	.	16A'\LL	.	8g/ 8A/	.	.	8e\	.	.	.	.	.
.	.	.	.	.	.	16a'/JJ	.	.	.	.	.	.	.	16A'\JJ	.	.	.	.	.	.	.	.	.	.
*	*	*Xrep	*	*Xrep	*	*	*	*Xrep	*	*	*	*	*	*	*	*Xrep	*	*	*Xrep	*	*	*	*	*
*	*	*rep	*	*rep	*	*	*	*rep	*	*	*	*	*	*	*	*rep	*	*	*rep	*	*	*	*	*
8AA/	.	8r	.	8r	.	(16b/LL	.	8AA/	.	.	.	.	.	(16B\LL	.	8r	.	.	8r	.	.	.	.	.
.	.	.	.	.	.	16a/)	.	.	.	.	.	.	.	16A\)	.	.	.	.	.	.	.	.	.	.
8r	.	8e\ 8c#\	.	8g/ 8A/	.	16g'/	.	8r	.	.	.	8g/ 8e/	.	16G'\	.	8g/ 8A/	.	8ee/	8e\	.	8gg\	.	.	.
.	.	.	.	.	.	16e'/JJ	.	.	.	.	.	.	.	16E'\JJ	.	.	.	.	.	.	.	.	.	.
*	*	*Xrep	*	*Xrep	*	*	*	*Xrep	*	*	*	*	*	*	*	*Xrep	*	*	*Xrep	*	*	*	*	*
=46	=46	=46	=46	=46	=46	=46	=46	=46	=46	=46	=46	=46	=46	=46	=46	=46	=46	=46	=46	=46	=46	=46	=46	=46
8D\	.	8r	.	8r	.	4r	.	8D\	.	2.r	.	16b/LL 16g/	.	4r	.	8r	.	(16gg/LL	8r	.	(16bb\LL	.	2.ryy	.
.	.	.	.	.	.	.	.	.	.	.	.	16a/ 16f#/	.	.	.	.	.	16ff#/)	.	.	16aa\)	.	.	.
8r	.	8d\	.	8f#/ 8A/	.	.	.	8r	.	.	.	16a/ 16f#/	.	.	.	8f#/ 8A/	.	(16ff#/	8d\	.	(16aa\	.	.	.
.	.	.	.	.	.	.	.	.	.	.	.	16g/JJ 16e/	.	.	.	.	.	16ee/JJ)	.	.	16gg\JJ)	.	.	.
*	*	*rep	*	*rep	*	*	*	*rep	*	*	*	*	*	*	*	*rep	*	*	*rep	*	*	*	*	*
8D\	.	8r	.	8r	.	8r	.	8D\	.	.	.	4.f#/ 4.d/	.	8r	.	8r	.	4.dd/	8r	.	4.ff#\	.	.	.
8r	.	8d\	.	8f#/ 8A/	.	16dd'\LL	.	8r	.	.	.	.	.	16d'\LL	.	8f#/ 8A/	.	.	8d\	.	.	.	.	.
.	.	.	.	.	.	16dd'\JJ	.	.	.	.	.	.	.	16d'\JJ	.	.	.	.	.	.	.	.	.	.
*	*	*Xrep	*	*Xrep	*	*	*	*Xrep	*	*	*	*	*	*	*	*Xrep	*	*	*Xrep	*	*	*	*	*
*	*	*rep	*	*rep	*	*	*	*rep	*	*	*	*	*	*	*	*rep	*	*	*rep	*	*	*	*	*
8D\	.	8r	.	8r	.	(16ee\LL	.	8D\	.	.	.	.	.	(16e\LL	.	8r	.	.	8r	.	.	.	.	.
.	.	.	.	.	.	16dd\)	.	.	.	.	.	.	.	16d\)	.	.	.	.	.	.	.	.	.	.
8r	.	8d\	.	8f#/ 8A/	.	16a'\	.	8r	.	.	.	8a/ 8f#/	.	16A'\	.	8f#/ 8A/	.	8ff#/	8d\	.	8aa\	.	.	.
.	.	.	.	.	.	16f#'\JJ	.	.	.	.	.	.	.	16F#'\JJ	.	.	.	.	.	.	.	.	.	.
*	*	*Xrep	*	*Xrep	*	*	*	*Xrep	*	*	*	*	*	*	*	*Xrep	*	*	*Xrep	*	*	*	*	*
=47	=47	=47	=47	=47	=47	=47	=47	=47	=47	=47	=47	=47	=47	=47	=47	=47	=47	=47	=47	=47	=47	=47	=47	=47
*	*	*	*	*	*	*	*	*	*	*^	*	*	*	*	*	*	*	*	*	*	*	*	*	*
8GG/	.	8r	.	8r	.	4r	.	8GG/	.	8G/L	4C\	.	(8cc/L 8a^/	.	4r	.	8r	.	(8aaT/L	8cc^\L	.	(8cccT\L	.	(8cccT\L	.
*	*	*	*	*	*	*	*	*	*	*tremolo	*	*	*	*	*	*	*	*	*	*	*	*	*	*	*
8r	.	8e\	.	8g/ 8e/ 8B/	.	.	.	8r	.	32G/LL	.	.	8b/J 8g/)	.	.	.	8e/ 8B/	.	8gg/J)	8b\J	.	8bb\J)	.	8bb\J)	.
.	.	.	.	.	.	.	.	.	.	32G/	.	.	.	.	.	.	.	.	.	.	.	.	.	.	.
.	.	.	.	.	.	.	.	.	.	32G/	.	.	.	.	.	.	.	.	.	.	.	.	.	.	.
.	.	.	.	.	.	.	.	.	.	32G/JJJ	.	.	.	.	.	.	.	.	.	.	.	.	.	.	.
*	*	*	*	*	*	*	*	*	*	*rep	*	*	*	*	*	*	*	*	*	*	*	*	*	*	*
8GG/	.	8r	.	8r	.	8r	.	8GG/	.	8G/L	4r	.	(8a/L 8f#^/	.	8r	.	8r	.	(8ff#t/L	8a^\L	.	(8aaT\L	.	(8aaT\L	.
8r	.	8e\	.	8g/ 8B-X/	.	16b-X'/LL	.	8r	.	32G/LL	.	.	8g/J 8e/)	.	16B-X\LL	.	8e/ 8B-X/	.	8ee/J)	8g\J	.	8gg\J)	.	8gg\J)	.
.	.	.	.	.	.	.	.	.	.	32G/	.	.	.	.	.	.	.	.	.	.	.	.	.	.	.
.	.	.	.	.	.	16b-'/JJ	.	.	.	32G/	.	.	.	.	16B-\JJ	.	.	.	.	.	.	.	.	.	.
.	.	.	.	.	.	.	.	.	.	32G/JJJ	.	.	.	.	.	.	.	.	.	.	.	.	.	.	.
*	*	*	*	*	*	*	*	*	*	*Xrep	*	*	*	*	*	*	*	*	*	*	*	*	*	*	*
*	*	*	*	*	*	*	*	*	*	*rep	*	*	*	*	*	*	*	*	*	*	*	*	*	*	*
8AA/	.	8r	.	8r	.	(16a/LL	.	8GG/	.	8G/L	4r	.	(8f#/L 8d^/	.	(16A\LL	.	8r	.	(8ddT/L	8f#^\L	.	(8ff#t\L	.	(8ff#t\L	.
.	.	.	.	.	.	16g#X/)	.	.	.	.	.	.	.	.	16G#X\)	.	.	.	.	.	.	.	.	.	.
8r	.	8e\	.	8g/ 8A/	.	16a'/	.	8r	.	32G/LL	.	.	8e/J 8c#X/)	.	16A\	.	8e/ 8A/	.	8cc#/J)	8e\J	.	8ee\J)	.	8ee\J)	.
.	.	.	.	.	.	.	.	.	.	32G/	.	.	.	.	.	.	.	.	.	.	.	.	.	.	.
.	.	.	.	.	.	16cc#X'/JJ	.	.	.	32G/	.	.	.	.	16c#X\JJ	.	.	.	.	.	.	.	.	.	.
.	.	.	.	.	.	.	.	.	.	32G/JJJ	.	.	.	.	.	.	.	.	.	.	.	.	.	.	.
*	*	*	*	*	*	*	*	*	*	*Xrep	*	*	*	*	*	*	*	*	*	*	*	*	*	*	*
*	*	*	*	*	*	*	*	*	*	*Xtremolo	*	*	*	*	*	*	*	*	*	*	*	*	*	*	*
=48	=48	=48	=48	=48	=48	=48	=48	=48	=48	=48	=48	=48	=48	=48	=48	=48	=48	=48	=48	=48	=48	=48	=48	=48	=48
8D\	.	8d\	.	8f#/ 8A/	.	8dd\	.	8D\	.	8G/	8r	.	8d/	.	8d\	.	8d/ 8F#/	.	8dd/	8f#\	.	8dd\	.	8dd\	.
!	!	!	!	!	!	!	!	!	!	!	!	!	!	!	!	!	!	!	!LO:DY:a	!	!	!	!	!	!
.	.	.	.	.	f	.	f	.	f	.	.	f	.	.	.	.	.	.	.	.	f	.	.	.	.
8D\	f	8f#\ 8A\	.	8ff#\ 8a\ 8d\	.	8cccn\ 8dd\ 8d\	.	8D\	.	8G/	8C\	.	8cc/ 8f#/	.	8D\	.	8d/ 8F#/	.	8ff#\ 8a\	8ryy	.	8aa\	.	8cccn\	.
4r	.	16r	.	16r	.	16r	.	4r	.	4r	2ryy	.	4r	.	4r	.	2r	.	16r	2ryy	.	4r	.	4r	.
!	!	!	!	!LO:TX:a:t=Unis	!	!	!	!	!	!	!	!	!	!	!	!	!	!	!LO:TX:a:t=due	!	!	!	!	!	!
.	.	(16d\LL	.	(16dd\LLyy	.	(16dd\LL	.	.	.	.	.	.	.	.	.	.	.	.	(16d/LL	.	.	.	.	.	.
.	.	16c#X\	.	16cc#X\yy	.	16cc#X\	.	.	.	.	.	.	.	.	.	.	.	.	16c#/	.	.	.	.	.	.
.	.	16d\JJ	.	16dd\JJyy	.	16dd\JJ	.	.	.	.	.	.	.	.	.	.	.	.	16d/JJ	.	.	.	.	.	.
!	!	!	!	!	!	!	!	!	!	!	!	!	!	!	!	!	!	!	!	!	!	!	!	!io da capo al fine e poi Polonez al fine.	!
4r	.	16d#X\LL	.	16dd#X\LLyy	.	16dd#X\LL	.	4r	.	4r	.	.	4r	.	4r	.	.	.	16d#X/LL	.	.	4r	.	4r	.
.	.	16e\	.	16ee\yy	.	16ee\	.	.	.	.	.	.	.	.	.	.	.	.	16e/	.	.	.	.	.	.
.	.	16e#X\	.	16ee#X\yy	.	16ee#X\	.	.	.	.	.	.	.	.	.	.	.	.	16e#X/	.	.	.	.	.	.
.	.	16f#\JJ)	.	16ff#\JJ)yy	.	16ff#\JJ)	.	.	.	.	.	.	.	.	.	.	.	.	16f#/JJ)	.	.	.	.	.	.
*	*	*	*	*	*	*	*	*	*	*v	*v	*	*	*	*	*	*	*	*v	*v	*	*	*	*	*
==	==	==	==	==	==	==	==	==	==	==	==	==	==	==	==	==	==	==	==	==	==	==	==
*-	*-	*-	*-	*-	*-	*-	*-	*-	*-	*-	*-	*-	*-	*-	*-	*-	*-	*-	*-	*-	*-	*-	*-
!!!system-decoration: [(s1,s2)]s3,s4,s5,s6,s7,s8[(s9,s10)]s11,s12
!!!RDF**kern: > = above
!!!RDF**kern: < = below
!!!EED: Leszek Kubiak
!!!EST: 2021-05-10
!!!ENC:Anastazja Marusiak
!!!END:2021-05-01
!!!RDF**kern: | = vertical stroke
